FinnLinxxx/akig/Rosbag_listeners/UR5_joint_pos_05Pts125hzLAN.txt
    Joint0	    Joint1	    Joint2	    Joint3	    Joint4	    Joint5	
  0.066267	 -0.929684	  0.533967	 -1.198201	  1.602531	 -1.491566	
  0.066267	 -0.929707	  0.533991	 -1.198188	  1.602543	 -1.491518	
  0.066315	 -0.929732	  0.533943	 -1.198212	  1.602567	 -1.491542	
  0.066243	 -0.929719	  0.533967	 -1.198201	  1.602543	 -1.491530	
  0.066255	 -0.929695	  0.533955	 -1.198188	  1.602567	 -1.491506	
  0.066303	 -0.929744	  0.533955	 -1.198201	  1.602543	 -1.491542	
  0.066303	 -0.929719	  0.533967	 -1.198212	  1.602507	 -1.491530	
  0.066291	 -0.929744	  0.533967	 -1.198224	  1.602543	 -1.491542	
  0.066303	 -0.929732	  0.533967	 -1.198176	  1.602531	 -1.491542	
  0.066279	 -0.929732	  0.533979	 -1.198224	  1.602555	 -1.491530	
  0.066303	 -0.929707	  0.533955	 -1.198224	  1.602555	 -1.491554	
  0.066291	 -0.929732	  0.533955	 -1.198188	  1.602555	 -1.491566	
  0.066267	 -0.929719	  0.533979	 -1.198188	  1.602555	 -1.491554	
  0.066303	 -0.929767	  0.533979	 -1.198188	  1.602531	 -1.491530	
  0.066267	 -0.929732	  0.533979	 -1.198212	  1.602567	 -1.491566	
  0.066279	 -0.929744	  0.533955	 -1.198176	  1.602555	 -1.491578	
  0.066267	 -0.929719	  0.533943	 -1.198224	  1.602531	 -1.491542	
  0.066291	 -0.929744	  0.533979	 -1.198201	  1.602555	 -1.491506	
  0.066279	 -0.929732	  0.533955	 -1.198224	  1.602543	 -1.491542	
  0.066279	 -0.929719	  0.533967	 -1.198201	  1.602567	 -1.491566	
  0.066291	 -0.929719	  0.533979	 -1.198176	  1.602519	 -1.491530	
  0.066279	 -0.929719	  0.533979	 -1.198176	  1.602555	 -1.491506	
  0.066291	 -0.929744	  0.533979	 -1.198201	  1.602567	 -1.491530	
  0.066291	 -0.929744	  0.533955	 -1.198176	  1.602567	 -1.491554	
  0.066315	 -0.929719	  0.533979	 -1.198188	  1.602555	 -1.491530	
  0.066315	 -0.929732	  0.533967	 -1.198176	  1.602555	 -1.491530	
  0.066327	 -0.929719	  0.533943	 -1.198176	  1.602543	 -1.491542	
  0.066303	 -0.929732	  0.533943	 -1.198164	  1.602555	 -1.491554	
  0.066279	 -0.929756	  0.533967	 -1.198188	  1.602531	 -1.491554	
  0.066279	 -0.929719	  0.533967	 -1.198212	  1.602579	 -1.491554	
  0.066267	 -0.929719	  0.533955	 -1.198176	  1.602543	 -1.491542	
  0.066291	 -0.929732	  0.533967	 -1.198201	  1.602555	 -1.491554	
  0.066279	 -0.929732	  0.533967	 -1.198188	  1.602543	 -1.491530	
  0.066267	 -0.929767	  0.533955	 -1.198212	  1.602543	 -1.491518	
  0.066291	 -0.929744	  0.533967	 -1.198201	  1.602531	 -1.491530	
  0.066303	 -0.929719	  0.533991	 -1.198212	  1.602543	 -1.491530	
  0.066267	 -0.929684	  0.533967	 -1.198164	  1.602531	 -1.491542	
  0.066267	 -0.929695	  0.533979	 -1.198188	  1.602519	 -1.491542	
  0.066279	 -0.929719	  0.533967	 -1.198201	  1.602543	 -1.491518	
  0.066279	 -0.929719	  0.533955	 -1.198164	  1.602555	 -1.491566	
  0.066303	 -0.929744	  0.533967	 -1.198212	  1.602555	 -1.491518	
  0.066267	 -0.929744	  0.533979	 -1.198164	  1.602543	 -1.491554	
  0.066315	 -0.929732	  0.533979	 -1.198176	  1.602555	 -1.491542	
  0.066339	 -0.929719	  0.533979	 -1.198236	  1.602567	 -1.491566	
  0.066303	 -0.929732	  0.533955	 -1.198176	  1.602567	 -1.491542	
  0.066303	 -0.929719	  0.533967	 -1.198188	  1.602555	 -1.491554	
  0.066315	 -0.929732	  0.533979	 -1.198188	  1.602555	 -1.491530	
  0.066303	 -0.929779	  0.533967	 -1.198188	  1.602531	 -1.491554	
  0.066279	 -0.929744	  0.533967	 -1.198188	  1.602543	 -1.491554	
  0.066303	 -0.929732	  0.533967	 -1.198201	  1.602555	 -1.491530	
  0.066291	 -0.929707	  0.533979	 -1.198224	  1.602543	 -1.491542	
  0.066279	 -0.929719	  0.533979	 -1.198201	  1.602543	 -1.491542	
  0.066303	 -0.929719	  0.533979	 -1.198188	  1.602555	 -1.491554	
  0.066267	 -0.929695	  0.533979	 -1.198224	  1.602543	 -1.491542	
  0.066279	 -0.929732	  0.533967	 -1.198224	  1.602555	 -1.491566	
  0.066291	 -0.929719	  0.533967	 -1.198212	  1.602567	 -1.491530	
  0.066267	 -0.929707	  0.533955	 -1.198212	  1.602531	 -1.491566	
  0.066327	 -0.929732	  0.533967	 -1.198188	  1.602543	 -1.491542	
  0.066303	 -0.929707	  0.533991	 -1.198201	  1.602555	 -1.491566	
  0.066279	 -0.929732	  0.533991	 -1.198201	  1.602543	 -1.491530	
  0.066291	 -0.929707	  0.533979	 -1.198188	  1.602531	 -1.491530	
  0.066291	 -0.929732	  0.533979	 -1.198176	  1.602531	 -1.491530	
  0.066303	 -0.929719	  0.533943	 -1.198176	  1.602531	 -1.491554	
  0.066279	 -0.929695	  0.533979	 -1.198212	  1.602531	 -1.491542	
  0.066303	 -0.929719	  0.533967	 -1.198188	  1.602567	 -1.491578	
  0.066279	 -0.929732	  0.533979	 -1.198188	  1.602543	 -1.491530	
  0.066291	 -0.929719	  0.533979	 -1.198201	  1.602543	 -1.491554	
  0.066303	 -0.929719	  0.533967	 -1.198188	  1.602531	 -1.491530	
  0.066303	 -0.929732	  0.533991	 -1.198188	  1.602531	 -1.491542	
  0.066267	 -0.929732	  0.533967	 -1.198188	  1.602555	 -1.491542	
  0.066303	 -0.929695	  0.533955	 -1.198201	  1.602531	 -1.491542	
  0.066303	 -0.929719	  0.533979	 -1.198188	  1.602555	 -1.491542	
  0.066279	 -0.929707	  0.533991	 -1.198188	  1.602555	 -1.491542	
  0.066279	 -0.929744	  0.533979	 -1.198201	  1.602555	 -1.491530	
  0.066291	 -0.929732	  0.533943	 -1.198164	  1.602543	 -1.491518	
  0.066255	 -0.929744	  0.533979	 -1.198201	  1.602543	 -1.491566	
  0.066303	 -0.929695	  0.533955	 -1.198201	  1.602567	 -1.491530	
  0.066291	 -0.929695	  0.533979	 -1.198212	  1.602579	 -1.491554	
  0.066267	 -0.929732	  0.533943	 -1.198188	  1.602567	 -1.491542	
  0.066255	 -0.929719	  0.533967	 -1.198201	  1.602531	 -1.491542	
  0.066327	 -0.929719	  0.533979	 -1.198224	  1.602567	 -1.491542	
  0.066303	 -0.929695	  0.533991	 -1.198201	  1.602543	 -1.491518	
  0.066279	 -0.929707	  0.533967	 -1.198212	  1.602543	 -1.491506	
  0.066291	 -0.929744	  0.533967	 -1.198224	  1.602543	 -1.491578	
  0.066303	 -0.929744	  0.533967	 -1.198176	  1.602531	 -1.491530	
  0.066267	 -0.929719	  0.533991	 -1.198236	  1.602531	 -1.491518	
  0.066291	 -0.929744	  0.533967	 -1.198201	  1.602543	 -1.491530	
  0.066327	 -0.929732	  0.533967	 -1.198176	  1.602543	 -1.491530	
  0.066303	 -0.929732	  0.533943	 -1.198212	  1.602531	 -1.491542	
  0.066279	 -0.929707	  0.533955	 -1.198201	  1.602531	 -1.491530	
  0.066255	 -0.929719	  0.533979	 -1.198188	  1.602567	 -1.491554	
  0.066327	 -0.929732	  0.533979	 -1.198164	  1.602555	 -1.491530	
  0.066327	 -0.929707	  0.533955	 -1.198212	  1.602531	 -1.491566	
  0.066291	 -0.929719	  0.533979	 -1.198188	  1.602555	 -1.491530	
  0.066327	 -0.929695	  0.533991	 -1.198152	  1.602543	 -1.491518	
  0.066279	 -0.929732	  0.533979	 -1.198201	  1.602555	 -1.491542	
  0.066303	 -0.929744	  0.533979	 -1.198176	  1.602555	 -1.491554	
  0.066279	 -0.929732	  0.533991	 -1.198201	  1.602531	 -1.491566	
  0.066279	 -0.929732	  0.533955	 -1.198224	  1.602567	 -1.491542	
  0.066267	 -0.929719	  0.533967	 -1.198176	  1.602519	 -1.491542	
  0.066255	 -0.929707	  0.533991	 -1.198188	  1.602543	 -1.491554	
  0.066303	 -0.929756	  0.533967	 -1.198212	  1.602543	 -1.491542	
  0.066279	 -0.929744	  0.533967	 -1.198201	  1.602567	 -1.491530	
  0.066291	 -0.929744	  0.533967	 -1.198212	  1.602543	 -1.491566	
  0.066291	 -0.929707	  0.533967	 -1.198201	  1.602567	 -1.491566	
  0.066291	 -0.929719	  0.533967	 -1.198201	  1.602543	 -1.491542	
  0.066267	 -0.929707	  0.533991	 -1.198176	  1.602531	 -1.491530	
  0.066255	 -0.929719	  0.533979	 -1.198152	  1.602531	 -1.491530	
  0.066315	 -0.929744	  0.533931	 -1.198212	  1.602519	 -1.491590	
  0.066279	 -0.929719	  0.533943	 -1.198164	  1.602531	 -1.491542	
  0.066327	 -0.929744	  0.533979	 -1.198188	  1.602531	 -1.491530	
  0.066303	 -0.929756	  0.533967	 -1.198176	  1.602555	 -1.491578	
  0.066279	 -0.929732	  0.533979	 -1.198201	  1.602531	 -1.491554	
  0.066267	 -0.929732	  0.533967	 -1.198201	  1.602555	 -1.491518	
  0.066255	 -0.929744	  0.533967	 -1.198212	  1.602507	 -1.491506	
  0.066327	 -0.929732	  0.533943	 -1.198188	  1.602519	 -1.491518	
  0.066267	 -0.929719	  0.533979	 -1.198212	  1.602567	 -1.491566	
  0.066279	 -0.929719	  0.533967	 -1.198188	  1.602531	 -1.491530	
  0.066303	 -0.929732	  0.533979	 -1.198212	  1.602543	 -1.491542	
  0.066291	 -0.929695	  0.533979	 -1.198212	  1.602567	 -1.491530	
  0.066315	 -0.929744	  0.533979	 -1.198212	  1.602507	 -1.491554	
  0.066279	 -0.929732	  0.533955	 -1.198188	  1.602555	 -1.491578	
  0.066303	 -0.929732	  0.533979	 -1.198201	  1.602591	 -1.491542	
  0.066327	 -0.929744	  0.533967	 -1.198212	  1.602555	 -1.491530	
  0.066303	 -0.929707	  0.533979	 -1.198176	  1.602543	 -1.491542	
  0.066291	 -0.929695	  0.533967	 -1.198201	  1.602555	 -1.491518	
  0.066315	 -0.929707	  0.533979	 -1.198188	  1.602543	 -1.491530	
  0.066279	 -0.929732	  0.533979	 -1.198201	  1.602531	 -1.491530	
  0.066267	 -0.929719	  0.533955	 -1.198188	  1.602543	 -1.491542	
  0.066303	 -0.929744	  0.533979	 -1.198201	  1.602519	 -1.491566	
  0.066303	 -0.929695	  0.533991	 -1.198212	  1.602519	 -1.491554	
  0.066303	 -0.929744	  0.533967	 -1.198201	  1.602531	 -1.491542	
  0.066267	 -0.929756	  0.533967	 -1.198212	  1.602531	 -1.491530	
  0.066291	 -0.929744	  0.533979	 -1.198188	  1.602567	 -1.491578	
  0.066291	 -0.929707	  0.533979	 -1.198224	  1.602543	 -1.491530	
  0.066327	 -0.929744	  0.533955	 -1.198164	  1.602543	 -1.491542	
  0.066303	 -0.929719	  0.533943	 -1.198201	  1.602543	 -1.491554	
  0.066279	 -0.929707	  0.533979	 -1.198176	  1.602567	 -1.491554	
  0.066303	 -0.929719	  0.533955	 -1.198212	  1.602507	 -1.491518	
  0.066291	 -0.929732	  0.533991	 -1.198176	  1.602579	 -1.491554	
  0.066279	 -0.929744	  0.533979	 -1.198188	  1.602519	 -1.491554	
  0.066267	 -0.929756	  0.533967	 -1.198212	  1.602555	 -1.491530	
  0.066291	 -0.929719	  0.533979	 -1.198201	  1.602567	 -1.491578	
  0.066303	 -0.929695	  0.533967	 -1.198212	  1.602567	 -1.491566	
  0.066279	 -0.929707	  0.533967	 -1.198188	  1.602543	 -1.491578	
  0.066291	 -0.929744	  0.533979	 -1.198212	  1.602555	 -1.491554	
  0.066279	 -0.929719	  0.533979	 -1.198201	  1.602543	 -1.491554	
  0.066303	 -0.929744	  0.533955	 -1.198201	  1.602543	 -1.491554	
  0.066303	 -0.929756	  0.533943	 -1.198164	  1.602531	 -1.491554	
  0.066291	 -0.929756	  0.533979	 -1.198201	  1.602543	 -1.491530	
  0.066279	 -0.929719	  0.533967	 -1.198201	  1.602531	 -1.491530	
  0.066267	 -0.929695	  0.533991	 -1.198201	  1.602543	 -1.491566	
  0.066291	 -0.929756	  0.533979	 -1.198201	  1.602567	 -1.491554	
  0.066291	 -0.929744	  0.533979	 -1.198201	  1.602543	 -1.491530	
  0.066279	 -0.929719	  0.533967	 -1.198152	  1.602555	 -1.491530	
  0.066267	 -0.929732	  0.533967	 -1.198201	  1.602555	 -1.491566	
  0.066279	 -0.929719	  0.533943	 -1.198201	  1.602591	 -1.491542	
  0.066327	 -0.929744	  0.533967	 -1.198188	  1.602567	 -1.491518	
  0.066291	 -0.929707	  0.533991	 -1.198188	  1.602555	 -1.491542	
  0.066291	 -0.929732	  0.533955	 -1.198188	  1.602543	 -1.491530	
  0.066279	 -0.929744	  0.533979	 -1.198212	  1.602519	 -1.491542	
  0.066291	 -0.929744	  0.533967	 -1.198212	  1.602531	 -1.491566	
  0.066291	 -0.929767	  0.533967	 -1.198201	  1.602555	 -1.491566	
  0.066303	 -0.929732	  0.533979	 -1.198201	  1.602531	 -1.491530	
  0.066303	 -0.929719	  0.533955	 -1.198176	  1.602567	 -1.491554	
  0.066279	 -0.929767	  0.533991	 -1.198188	  1.602543	 -1.491554	
  0.066303	 -0.929732	  0.533943	 -1.198201	  1.602531	 -1.491518	
  0.066243	 -0.929744	  0.533955	 -1.198188	  1.602531	 -1.491542	
  0.066267	 -0.929732	  0.533967	 -1.198212	  1.602519	 -1.491542	
  0.066327	 -0.929732	  0.533955	 -1.198164	  1.602555	 -1.491566	
  0.066291	 -0.929756	  0.533967	 -1.198201	  1.602555	 -1.491542	
  0.066279	 -0.929732	  0.533967	 -1.198224	  1.602579	 -1.491530	
  0.066279	 -0.929756	  0.533955	 -1.198212	  1.602567	 -1.491530	
  0.066291	 -0.929744	  0.533955	 -1.198201	  1.602543	 -1.491530	
  0.066279	 -0.929719	  0.533967	 -1.198224	  1.602555	 -1.491542	
  0.066291	 -0.929744	  0.533967	 -1.198176	  1.602531	 -1.491530	
  0.066279	 -0.929744	  0.533967	 -1.198212	  1.602579	 -1.491590	
  0.066291	 -0.929707	  0.533955	 -1.198188	  1.602531	 -1.491542	
  0.066279	 -0.929732	  0.533979	 -1.198201	  1.602555	 -1.491530	
  0.066279	 -0.929732	  0.533955	 -1.198188	  1.602543	 -1.491542	
  0.066291	 -0.929707	  0.533967	 -1.198188	  1.602555	 -1.491518	
  0.066255	 -0.929707	  0.533979	 -1.198201	  1.602531	 -1.491566	
  0.066279	 -0.929732	  0.533991	 -1.198212	  1.602567	 -1.491530	
  0.066303	 -0.929744	  0.534003	 -1.198212	  1.602555	 -1.491566	
  0.066255	 -0.929707	  0.533991	 -1.198188	  1.602543	 -1.491518	
  0.066303	 -0.929707	  0.534003	 -1.198212	  1.602543	 -1.491530	
  0.066291	 -0.929732	  0.533967	 -1.198176	  1.602543	 -1.491542	
  0.066267	 -0.929732	  0.533967	 -1.198188	  1.602531	 -1.491530	
  0.066255	 -0.929732	  0.533979	 -1.198201	  1.602567	 -1.491554	
  0.066279	 -0.929744	  0.533943	 -1.198201	  1.602543	 -1.491518	
  0.066279	 -0.929719	  0.533943	 -1.198236	  1.602543	 -1.491554	
  0.066279	 -0.929732	  0.533967	 -1.198188	  1.602531	 -1.491590	
  0.066279	 -0.929719	  0.533991	 -1.198212	  1.602555	 -1.491542	
  0.066303	 -0.929732	  0.533967	 -1.198212	  1.602507	 -1.491542	
  0.066291	 -0.929707	  0.533955	 -1.198188	  1.602567	 -1.491554	
  0.066303	 -0.929744	  0.533991	 -1.198176	  1.602531	 -1.491518	
  0.066279	 -0.929719	  0.533979	 -1.198201	  1.602555	 -1.491542	
  0.066303	 -0.929719	  0.533967	 -1.198224	  1.602531	 -1.491530	
  0.066315	 -0.929707	  0.533991	 -1.198212	  1.602555	 -1.491554	
  0.066291	 -0.929732	  0.533991	 -1.198188	  1.602567	 -1.491566	
  0.066255	 -0.929707	  0.533943	 -1.198188	  1.602543	 -1.491554	
  0.066315	 -0.929744	  0.533979	 -1.198188	  1.602567	 -1.491518	
  0.066315	 -0.929707	  0.533979	 -1.198176	  1.602543	 -1.491530	
  0.066303	 -0.929732	  0.533979	 -1.198236	  1.602543	 -1.491578	
  0.066267	 -0.929744	  0.533979	 -1.198212	  1.602543	 -1.491542	
  0.066291	 -0.929719	  0.533943	 -1.198188	  1.602531	 -1.491554	
  0.066267	 -0.929707	  0.533979	 -1.198188	  1.602531	 -1.491530	
  0.066303	 -0.929719	  0.533979	 -1.198212	  1.602531	 -1.491518	
  0.066303	 -0.929744	  0.533979	 -1.198201	  1.602543	 -1.491554	
  0.066303	 -0.929732	  0.533967	 -1.198212	  1.602579	 -1.491542	
  0.066267	 -0.929732	  0.533967	 -1.198176	  1.602543	 -1.491530	
  0.066255	 -0.929707	  0.533967	 -1.198236	  1.602555	 -1.491542	
  0.066291	 -0.929732	  0.533955	 -1.198224	  1.602555	 -1.491542	
  0.066279	 -0.929744	  0.533979	 -1.198188	  1.602567	 -1.491518	
  0.066327	 -0.929707	  0.533979	 -1.198188	  1.602519	 -1.491518	
  0.066267	 -0.929707	  0.533967	 -1.198188	  1.602531	 -1.491542	
  0.066339	 -0.929732	  0.533979	 -1.198224	  1.602531	 -1.491518	
  0.066315	 -0.929732	  0.533967	 -1.198164	  1.602519	 -1.491530	
  0.066291	 -0.929744	  0.533955	 -1.198212	  1.602543	 -1.491518	
  0.066303	 -0.929719	  0.533991	 -1.198201	  1.602531	 -1.491554	
  0.066303	 -0.929719	  0.533943	 -1.198176	  1.602519	 -1.491578	
  0.066303	 -0.929695	  0.533979	 -1.198201	  1.602507	 -1.491566	
  0.066315	 -0.929732	  0.533979	 -1.198224	  1.602531	 -1.491530	
  0.066279	 -0.929732	  0.533979	 -1.198212	  1.602531	 -1.491554	
  0.066315	 -0.929707	  0.533955	 -1.198188	  1.602531	 -1.491554	
  0.066315	 -0.929684	  0.533955	 -1.198212	  1.602543	 -1.491578	
  0.066279	 -0.929695	  0.533967	 -1.198188	  1.602531	 -1.491554	
  0.066315	 -0.929684	  0.533979	 -1.198224	  1.602519	 -1.491542	
  0.066303	 -0.929732	  0.533979	 -1.198201	  1.602567	 -1.491554	
  0.066279	 -0.929719	  0.533967	 -1.198224	  1.602531	 -1.491566	
  0.066291	 -0.929695	  0.533979	 -1.198201	  1.602495	 -1.491542	
  0.066279	 -0.929695	  0.533979	 -1.198176	  1.602495	 -1.491578	
  0.066279	 -0.929732	  0.533931	 -1.198212	  1.602531	 -1.491542	
  0.066267	 -0.929707	  0.534003	 -1.198212	  1.602483	 -1.491554	
  0.066279	 -0.929719	  0.533979	 -1.198188	  1.602507	 -1.491566	
  0.066315	 -0.929684	  0.533979	 -1.198212	  1.602495	 -1.491578	
  0.066279	 -0.929695	  0.533955	 -1.198248	  1.602531	 -1.491554	
  0.066255	 -0.929756	  0.534003	 -1.198188	  1.602543	 -1.491506	
  0.066255	 -0.929719	  0.533979	 -1.198201	  1.602507	 -1.491530	
  0.066279	 -0.929744	  0.533979	 -1.198212	  1.602519	 -1.491542	
  0.066315	 -0.929732	  0.533979	 -1.198212	  1.602519	 -1.491530	
  0.066279	 -0.929732	  0.533955	 -1.198201	  1.602495	 -1.491554	
  0.066279	 -0.929707	  0.533967	 -1.198188	  1.602507	 -1.491530	
  0.066303	 -0.929695	  0.533979	 -1.198201	  1.602543	 -1.491602	
  0.066279	 -0.929744	  0.533967	 -1.198224	  1.602519	 -1.491542	
  0.066291	 -0.929719	  0.533991	 -1.198201	  1.602483	 -1.491566	
  0.066291	 -0.929707	  0.533979	 -1.198201	  1.602507	 -1.491554	
  0.066279	 -0.929719	  0.533991	 -1.198236	  1.602519	 -1.491518	
  0.066267	 -0.929707	  0.533979	 -1.198212	  1.602507	 -1.491554	
  0.066315	 -0.929684	  0.533967	 -1.198201	  1.602483	 -1.491506	
  0.066267	 -0.929707	  0.533967	 -1.198224	  1.602555	 -1.491483	
  0.066279	 -0.929695	  0.534015	 -1.198212	  1.602519	 -1.491506	
  0.066243	 -0.929695	  0.533967	 -1.198212	  1.602531	 -1.491411	
  0.066196	 -0.929695	  0.533979	 -1.198248	  1.602531	 -1.491411	
  0.066100	 -0.929719	  0.533979	 -1.198224	  1.602519	 -1.491374	
  0.066016	 -0.929732	  0.533979	 -1.198236	  1.602531	 -1.491230	
  0.065944	 -0.929684	  0.533979	 -1.198201	  1.602543	 -1.491195	
  0.065824	 -0.929719	  0.534003	 -1.198188	  1.602507	 -1.491051	
  0.065681	 -0.929744	  0.533979	 -1.198212	  1.602543	 -1.490991	
  0.065513	 -0.929695	  0.533967	 -1.198212	  1.602555	 -1.490751	
  0.065286	 -0.929707	  0.533979	 -1.198224	  1.602531	 -1.490619	
  0.065118	 -0.929707	  0.533967	 -1.198224	  1.602531	 -1.490332	
  0.064878	 -0.929695	  0.534015	 -1.198236	  1.602507	 -1.490105	
  0.064603	 -0.929707	  0.533967	 -1.198236	  1.602483	 -1.489817	
  0.064316	 -0.929719	  0.533979	 -1.198201	  1.602519	 -1.489529	
  0.064028	 -0.929695	  0.533955	 -1.198212	  1.602495	 -1.489207	
  0.063658	 -0.929707	  0.533979	 -1.198176	  1.602483	 -1.488835	
  0.063275	 -0.929719	  0.533991	 -1.198248	  1.602483	 -1.488356	
  0.062820	 -0.929707	  0.534003	 -1.198236	  1.602507	 -1.487937	
  0.062293	 -0.929672	  0.533991	 -1.198212	  1.602471	 -1.487458	
  0.061694	 -0.929695	  0.533991	 -1.198248	  1.602555	 -1.486895	
  0.061132	 -0.929732	  0.533979	 -1.198188	  1.602507	 -1.486344	
  0.060521	 -0.929732	  0.534003	 -1.198224	  1.602495	 -1.485685	
  0.059863	 -0.929695	  0.533979	 -1.198224	  1.602519	 -1.484955	
  0.059133	 -0.929719	  0.533991	 -1.198212	  1.602495	 -1.484296	
  0.058403	 -0.929684	  0.534003	 -1.198212	  1.602495	 -1.483529	
  0.057612	 -0.929684	  0.533979	 -1.198224	  1.602519	 -1.482751	
  0.056834	 -0.929695	  0.533979	 -1.198188	  1.602531	 -1.481924	
  0.055985	 -0.929707	  0.533967	 -1.198212	  1.602495	 -1.481050	
  0.055123	 -0.929707	  0.533979	 -1.198224	  1.602531	 -1.480176	
  0.054165	 -0.929684	  0.533991	 -1.198201	  1.602495	 -1.479218	
  0.053219	 -0.929707	  0.534003	 -1.198176	  1.602495	 -1.478187	
  0.052178	 -0.929695	  0.533979	 -1.198212	  1.602483	 -1.477181	
  0.051077	 -0.929684	  0.533967	 -1.198224	  1.602507	 -1.476080	
  0.049999	 -0.929695	  0.533979	 -1.198212	  1.602519	 -1.474942	
  0.048790	 -0.929695	  0.533979	 -1.198212	  1.602519	 -1.473720	
  0.047677	 -0.929707	  0.533979	 -1.198212	  1.602531	 -1.472571	
  0.046372	 -0.929707	  0.533979	 -1.198201	  1.602495	 -1.471217	
  0.045115	 -0.929732	  0.533991	 -1.198224	  1.602507	 -1.469935	
  0.043787	 -0.929695	  0.533979	 -1.198212	  1.602507	 -1.468509	
  0.042470	 -0.929719	  0.534015	 -1.198212	  1.602519	 -1.467073	
  0.041118	 -0.929684	  0.533979	 -1.198236	  1.602507	 -1.465648	
  0.039645	 -0.929695	  0.533979	 -1.198212	  1.602483	 -1.464103	
  0.038125	 -0.929695	  0.534003	 -1.198201	  1.602507	 -1.462545	
  0.036580	 -0.929719	  0.533979	 -1.198224	  1.602495	 -1.460988	
  0.034965	 -0.929707	  0.533991	 -1.198236	  1.602495	 -1.459299	
  0.033373	 -0.929744	  0.533979	 -1.198212	  1.602507	 -1.457539	
  0.031697	 -0.929684	  0.533967	 -1.198236	  1.602531	 -1.455826	
  0.029925	 -0.929672	  0.533979	 -1.198212	  1.602495	 -1.454006	
  0.028166	 -0.929719	  0.533979	 -1.198201	  1.602495	 -1.452174	
  0.026334	 -0.929719	  0.534003	 -1.198236	  1.602507	 -1.450317	
  0.024502	 -0.929672	  0.533955	 -1.198176	  1.602483	 -1.448436	
  0.022599	 -0.929684	  0.533979	 -1.198224	  1.602507	 -1.446508	
  0.020660	 -0.929707	  0.533979	 -1.198201	  1.602495	 -1.444556	
  0.018697	 -0.929732	  0.533979	 -1.198236	  1.602507	 -1.442483	
  0.016674	 -0.929684	  0.533979	 -1.198212	  1.602507	 -1.440435	
  0.014675	 -0.929732	  0.533967	 -1.198224	  1.602507	 -1.438291	
  0.012533	 -0.929719	  0.533991	 -1.198236	  1.602507	 -1.436040	
  0.010426	 -0.929684	  0.533991	 -1.198236	  1.602519	 -1.433968	
  0.008523	 -0.929744	  0.533979	 -1.198188	  1.602531	 -1.431680	
  0.006164	 -0.929707	  0.533979	 -1.198201	  1.602471	 -1.429464	
  0.003938	 -0.929707	  0.533979	 -1.198164	  1.602459	 -1.427069	
  0.001640	 -0.929707	  0.533967	 -1.198224	  1.602495	 -1.424673	
 -0.000694	 -0.929684	  0.534003	 -1.198201	  1.602459	 -1.422218	
 -0.003136	 -0.929744	  0.533991	 -1.198188	  1.602471	 -1.419727	
 -0.005530	 -0.929684	  0.533979	 -1.198212	  1.602519	 -1.417235	
 -0.007996	 -0.929707	  0.533991	 -1.198188	  1.602495	 -1.414756	
 -0.010533	 -0.929707	  0.533991	 -1.198224	  1.602507	 -1.412193	
 -0.013083	 -0.929684	  0.533967	 -1.198224	  1.602495	 -1.409581	
 -0.015656	 -0.929732	  0.534015	 -1.198188	  1.602507	 -1.406899	
 -0.018254	 -0.929732	  0.533979	 -1.198212	  1.602495	 -1.404216	
 -0.020803	 -0.929707	  0.533991	 -1.198212	  1.602531	 -1.401449	
 -0.023544	 -0.929707	  0.534003	 -1.198248	  1.602495	 -1.398718	
 -0.026225	 -0.929719	  0.533967	 -1.198212	  1.602495	 -1.395796	
 -0.028991	 -0.929707	  0.533967	 -1.198224	  1.602507	 -1.392957	
 -0.031743	 -0.929684	  0.533967	 -1.198224	  1.602507	 -1.390095	
 -0.034581	 -0.929707	  0.533979	 -1.198212	  1.602519	 -1.387088	
 -0.037441	 -0.929695	  0.533979	 -1.198188	  1.602519	 -1.384178	
 -0.040386	 -0.929707	  0.533967	 -1.198188	  1.602507	 -1.381219	
 -0.043294	 -0.929695	  0.533979	 -1.198224	  1.602471	 -1.378177	
 -0.046263	 -0.929695	  0.533979	 -1.198212	  1.602507	 -1.375147	
 -0.049243	 -0.929719	  0.533991	 -1.198212	  1.602507	 -1.371984	
 -0.052283	 -0.929707	  0.534003	 -1.198248	  1.602543	 -1.368894	
 -0.055312	 -0.929695	  0.534003	 -1.198248	  1.602519	 -1.365720	
 -0.058376	 -0.929719	  0.533979	 -1.198201	  1.602483	 -1.362546	
 -0.061464	 -0.929707	  0.533967	 -1.198224	  1.602483	 -1.359252	
 -0.064612	 -0.929707	  0.533979	 -1.198236	  1.602531	 -1.355995	
 -0.067795	 -0.929732	  0.533991	 -1.198188	  1.602483	 -1.352784	
 -0.071027	 -0.929695	  0.533991	 -1.198176	  1.602495	 -1.349539	
 -0.074307	 -0.929695	  0.533979	 -1.198212	  1.602495	 -1.346089	
 -0.077634	 -0.929707	  0.533979	 -1.198212	  1.602495	 -1.342699	
 -0.080962	 -0.929707	  0.533979	 -1.198212	  1.602495	 -1.339201	
 -0.084337	 -0.929672	  0.533979	 -1.198201	  1.602507	 -1.335656	
 -0.087760	 -0.929719	  0.534003	 -1.198201	  1.602519	 -1.332099	
 -0.091279	 -0.929695	  0.533991	 -1.198201	  1.602471	 -1.328446	
 -0.094726	 -0.929707	  0.533979	 -1.198260	  1.602531	 -1.324708	
 -0.098353	 -0.929707	  0.533967	 -1.198248	  1.602495	 -1.321019	
 -0.101967	 -0.929719	  0.533991	 -1.198236	  1.602471	 -1.317354	
 -0.105713	 -0.929732	  0.533967	 -1.198212	  1.602423	 -1.313533	
 -0.109436	 -0.929719	  0.533967	 -1.198212	  1.602519	 -1.309616	
 -0.113194	 -0.929684	  0.533991	 -1.198212	  1.602483	 -1.305735	
 -0.117120	 -0.929732	  0.533967	 -1.198201	  1.602447	 -1.301759	
 -0.121010	 -0.929684	  0.533991	 -1.198224	  1.602507	 -1.297710	
 -0.124996	 -0.929719	  0.533991	 -1.198248	  1.602519	 -1.293602	
 -0.129077	 -0.929695	  0.533979	 -1.198260	  1.602495	 -1.289493	
 -0.133135	 -0.929695	  0.533991	 -1.198224	  1.602459	 -1.285265	
 -0.137408	 -0.929707	  0.533991	 -1.198224	  1.602447	 -1.280857	
 -0.141596	 -0.929719	  0.533979	 -1.198176	  1.602459	 -1.276473	
 -0.145893	 -0.929695	  0.533967	 -1.198201	  1.602471	 -1.272054	
 -0.150286	 -0.929672	  0.534003	 -1.198201	  1.602435	 -1.267478	
 -0.154738	 -0.929695	  0.533991	 -1.198212	  1.602411	 -1.262806	
 -0.159202	 -0.929695	  0.534003	 -1.198224	  1.602327	 -1.258183	
 -0.163762	 -0.929732	  0.533991	 -1.198212	  1.602339	 -1.253487	
 -0.168442	 -0.929707	  0.533979	 -1.198236	  1.602315	 -1.248685	
 -0.173158	 -0.929719	  0.533979	 -1.198224	  1.602279	 -1.243881	
 -0.177837	 -0.929684	  0.533991	 -1.198236	  1.602363	 -1.238922	
 -0.182612	 -0.929695	  0.533991	 -1.198212	  1.602327	 -1.233987	
 -0.187556	 -0.929648	  0.533979	 -1.198188	  1.602279	 -1.228944	
 -0.192535	 -0.929672	  0.533979	 -1.198212	  1.602303	 -1.223973	
 -0.197513	 -0.929672	  0.533991	 -1.198201	  1.602315	 -1.218787	
 -0.202659	 -0.929707	  0.533943	 -1.198201	  1.602327	 -1.213516	
 -0.207770	 -0.929684	  0.533991	 -1.198201	  1.602327	 -1.208234	
 -0.212917	 -0.929695	  0.533979	 -1.198212	  1.602327	 -1.202879	
 -0.218087	 -0.929695	  0.533979	 -1.198212	  1.602363	 -1.197513	
 -0.223269	 -0.929672	  0.533967	 -1.198201	  1.602339	 -1.192231	
 -0.228583	 -0.929695	  0.533979	 -1.198212	  1.602315	 -1.186732	
 -0.233885	 -0.929684	  0.533967	 -1.198176	  1.602315	 -1.181330	
 -0.239175	 -0.929684	  0.533979	 -1.198212	  1.602327	 -1.175784	
 -0.244596	 -0.929672	  0.533991	 -1.198212	  1.602327	 -1.170238	
 -0.250041	 -0.929684	  0.533979	 -1.198224	  1.602327	 -1.164716	
 -0.255463	 -0.929684	  0.533955	 -1.198224	  1.602375	 -1.159122	
 -0.261016	 -0.929744	  0.533955	 -1.198188	  1.602339	 -1.153384	
 -0.266581	 -0.929684	  0.533967	 -1.198224	  1.602363	 -1.147562	
 -0.272122	 -0.929695	  0.533979	 -1.198212	  1.602423	 -1.141645	
 -0.277736	 -0.929684	  0.533991	 -1.198201	  1.602351	 -1.135859	
 -0.283432	 -0.929672	  0.533991	 -1.198201	  1.602375	 -1.129978	
 -0.289213	 -0.929672	  0.533967	 -1.198188	  1.602375	 -1.124011	
 -0.295101	 -0.929707	  0.533967	 -1.198212	  1.602387	 -1.117963	
 -0.300881	 -0.929672	  0.533955	 -1.198164	  1.602315	 -1.111913	
 -0.306733	 -0.929672	  0.533955	 -1.198224	  1.602363	 -1.105780	
 -0.312741	 -0.929672	  0.533967	 -1.198176	  1.602399	 -1.099802	
 -0.318773	 -0.929672	  0.533943	 -1.198201	  1.602375	 -1.093597	
 -0.324924	 -0.929695	  0.533943	 -1.198176	  1.602387	 -1.087296	
 -0.331016	 -0.929672	  0.533967	 -1.198164	  1.602411	 -1.080947	
 -0.337071	 -0.929672	  0.533979	 -1.198128	  1.602423	 -1.074359	
 -0.343331	 -0.929660	  0.533991	 -1.198164	  1.602435	 -1.067986	
 -0.349565	 -0.929695	  0.533967	 -1.198188	  1.602483	 -1.061613	
 -0.355944	 -0.929744	  0.533955	 -1.198201	  1.602519	 -1.055108	
 -0.362323	 -0.929672	  0.533955	 -1.198212	  1.602531	 -1.048531	
 -0.368702	 -0.929684	  0.533943	 -1.198201	  1.602471	 -1.041799	
 -0.375188	 -0.929684	  0.533955	 -1.198248	  1.602495	 -1.035378	
 -0.381710	 -0.929684	  0.533967	 -1.198224	  1.602495	 -1.028610	
 -0.388209	 -0.929672	  0.533967	 -1.198188	  1.602483	 -1.021889	
 -0.394743	 -0.929660	  0.533955	 -1.198201	  1.602435	 -1.015013	
 -0.401289	 -0.929684	  0.533991	 -1.198201	  1.602531	 -1.008065	
 -0.407943	 -0.929684	  0.533943	 -1.198188	  1.602507	 -1.001128	
 -0.414645	 -0.929695	  0.533979	 -1.198188	  1.602471	 -0.994241	
 -0.421466	 -0.929707	  0.533943	 -1.198201	  1.602483	 -0.987364	
 -0.428167	 -0.929695	  0.533943	 -1.198212	  1.602543	 -0.980236	
 -0.434942	 -0.929684	  0.533979	 -1.198188	  1.602495	 -0.973467	
 -0.441822	 -0.929684	  0.533991	 -1.198201	  1.602483	 -0.966495	
 -0.448704	 -0.929684	  0.533955	 -1.198201	  1.602471	 -0.959283	
 -0.455693	 -0.929684	  0.533967	 -1.198188	  1.602435	 -0.952012	
 -0.462633	 -0.929707	  0.533967	 -1.198201	  1.602447	 -0.944775	
 -0.469682	 -0.929672	  0.533955	 -1.198212	  1.602495	 -0.937432	
 -0.476754	 -0.929672	  0.533955	 -1.198201	  1.602471	 -0.930040	
 -0.483995	 -0.929672	  0.533943	 -1.198201	  1.602435	 -0.922660	
 -0.491127	 -0.929672	  0.533979	 -1.198201	  1.602507	 -0.915376	
 -0.498236	 -0.929648	  0.533955	 -1.198164	  1.602507	 -0.907937	
 -0.505535	 -0.929636	  0.533943	 -1.198212	  1.602483	 -0.900305	
 -0.511974	 -0.929660	  0.533943	 -1.198152	  1.602519	 -0.892757	
 -0.519800	 -0.929648	  0.533931	 -1.198212	  1.602411	 -0.884982	
 -0.527160	 -0.929672	  0.533943	 -1.198224	  1.602423	 -0.877483	
 -0.534675	 -0.929672	  0.533955	 -1.198212	  1.602483	 -0.869551	
 -0.542179	 -0.929672	  0.533967	 -1.198164	  1.602519	 -0.861800	
 -0.549802	 -0.929660	  0.533907	 -1.198176	  1.602435	 -0.853988	
 -0.557329	 -0.929684	  0.533919	 -1.198164	  1.602435	 -0.846393	
 -0.564976	 -0.929636	  0.533907	 -1.198201	  1.602495	 -0.838474	
 -0.572659	 -0.929648	  0.533931	 -1.198152	  1.602507	 -0.830506	
 -0.580402	 -0.929648	  0.533871	 -1.198164	  1.602447	 -0.822335	
 -0.588037	 -0.929648	  0.533919	 -1.198176	  1.602399	 -0.814356	
 -0.595780	 -0.929636	  0.533907	 -1.198212	  1.602495	 -0.806257	
 -0.603666	 -0.929648	  0.533895	 -1.198188	  1.602471	 -0.798230	
 -0.611660	 -0.929672	  0.533871	 -1.198201	  1.602447	 -0.790106	
 -0.619451	 -0.929672	  0.533871	 -1.198224	  1.602459	 -0.782067	
 -0.627445	 -0.929648	  0.533871	 -1.198188	  1.602483	 -0.773860	
 -0.635523	 -0.929648	  0.533859	 -1.198188	  1.602459	 -0.765413	
 -0.643732	 -0.929648	  0.533812	 -1.198201	  1.602435	 -0.756799	
 -0.651786	 -0.929672	  0.533884	 -1.198201	  1.602459	 -0.748375	
 -0.659948	 -0.929660	  0.533847	 -1.198201	  1.602519	 -0.739929	
 -0.668265	 -0.929636	  0.533871	 -1.198201	  1.602507	 -0.731434	
 -0.676582	 -0.929660	  0.533859	 -1.198224	  1.602399	 -0.723094	
 -0.684875	 -0.929672	  0.533859	 -1.198188	  1.602495	 -0.714324	
 -0.693264	 -0.929636	  0.533871	 -1.198164	  1.602471	 -0.705709	
 -0.701725	 -0.929636	  0.533884	 -1.198128	  1.602495	 -0.696807	
 -0.710210	 -0.929636	  0.533835	 -1.198201	  1.602447	 -0.688156	
 -0.718623	 -0.929636	  0.533859	 -1.198188	  1.602435	 -0.679337	
 -0.727203	 -0.929672	  0.533871	 -1.198128	  1.602399	 -0.670662	
 -0.735832	 -0.929648	  0.533859	 -1.198140	  1.602435	 -0.661855	
 -0.744269	 -0.929660	  0.533835	 -1.198212	  1.602447	 -0.652988	
 -0.752837	 -0.929624	  0.533835	 -1.198164	  1.602411	 -0.644121	
 -0.761418	 -0.929636	  0.533847	 -1.198140	  1.602435	 -0.635003	
 -0.770130	 -0.929624	  0.533812	 -1.198164	  1.602351	 -0.626196	
 -0.778603	 -0.929600	  0.533823	 -1.198176	  1.602423	 -0.617245	
 -0.787232	 -0.929648	  0.533800	 -1.198140	  1.602399	 -0.608402	
 -0.795860	 -0.929636	  0.533847	 -1.198176	  1.602411	 -0.599727	
 -0.804417	 -0.929624	  0.533812	 -1.198212	  1.602375	 -0.590860	
 -0.812854	 -0.929636	  0.533847	 -1.198201	  1.602375	 -0.581789	
 -0.821447	 -0.929636	  0.533835	 -1.198117	  1.602399	 -0.572910	
 -0.830183	 -0.929624	  0.533800	 -1.198176	  1.602387	 -0.563898	
 -0.838692	 -0.929624	  0.533812	 -1.198152	  1.602375	 -0.555079	
 -0.847177	 -0.929660	  0.533800	 -1.198152	  1.602447	 -0.546319	
 -0.855794	 -0.929600	  0.533812	 -1.198201	  1.602435	 -0.537536	
 -0.864375	 -0.929636	  0.533800	 -1.198152	  1.602375	 -0.528728	
 -0.872752	 -0.929636	  0.533823	 -1.198176	  1.602459	 -0.519921	
 -0.881178	 -0.929588	  0.533788	 -1.198092	  1.602447	 -0.510981	
 -0.889747	 -0.929600	  0.533812	 -1.198176	  1.602459	 -0.502185	
 -0.898148	 -0.929624	  0.533788	 -1.198152	  1.602447	 -0.493653	
 -0.906562	 -0.929636	  0.533812	 -1.198152	  1.602387	 -0.484785	
 -0.914975	 -0.929624	  0.533812	 -1.198248	  1.602483	 -0.476097	
 -0.923461	 -0.929612	  0.533812	 -1.198117	  1.602459	 -0.467625	
 -0.931767	 -0.929576	  0.533775	 -1.198260	  1.602447	 -0.458805	
 -0.940084	 -0.929600	  0.533812	 -1.198117	  1.602519	 -0.450344	
 -0.948426	 -0.929588	  0.533800	 -1.198164	  1.602483	 -0.441393	
 -0.956768	 -0.929564	  0.533812	 -1.198164	  1.602387	 -0.433184	
 -0.964907	 -0.929540	  0.533788	 -1.198152	  1.602543	 -0.424496	
 -0.973021	 -0.929528	  0.533859	 -1.198164	  1.602531	 -0.416095	
 -0.981387	 -0.929528	  0.533835	 -1.198164	  1.602507	 -0.407801	
 -0.989742	 -0.929480	  0.533751	 -1.198152	  1.602423	 -0.399174	
 -0.997664	 -0.929492	  0.533835	 -1.198164	  1.602495	 -0.390904	
 -1.005767	 -0.929516	  0.533823	 -1.198045	  1.602531	 -0.382587	
 -1.013942	 -0.929504	  0.533788	 -1.198104	  1.602471	 -0.374054	
 -1.022021	 -0.929504	  0.533763	 -1.198188	  1.602483	 -0.365845	
 -1.029872	 -0.929528	  0.533823	 -1.198068	  1.602507	 -0.357755	
 -1.037856	 -0.929492	  0.533788	 -1.198176	  1.602471	 -0.349486	
 -1.045863	 -0.929528	  0.533788	 -1.198080	  1.602567	 -0.341432	
 -1.053703	 -0.929492	  0.533763	 -1.198128	  1.602435	 -0.333091	
 -1.061374	 -0.929492	  0.533847	 -1.198104	  1.602435	 -0.325240	
 -1.069215	 -0.929480	  0.533788	 -1.198080	  1.602507	 -0.316959	
 -1.077078	 -0.929528	  0.533788	 -1.198117	  1.602519	 -0.308834	
 -1.084799	 -0.929480	  0.533775	 -1.198104	  1.602459	 -0.301056	
 -1.092364	 -0.929504	  0.533775	 -1.198068	  1.602375	 -0.293038	
 -1.100072	 -0.929480	  0.533800	 -1.198164	  1.602483	 -0.285067	
 -1.107732	 -0.929528	  0.533763	 -1.198068	  1.602507	 -0.277421	
 -1.115321	 -0.929492	  0.533728	 -1.198128	  1.602435	 -0.269474	
 -1.122742	 -0.929480	  0.533728	 -1.198080	  1.602447	 -0.261576	
 -1.130271	 -0.929516	  0.533788	 -1.198117	  1.602483	 -0.253618	
 -1.137788	 -0.929516	  0.533775	 -1.198092	  1.602471	 -0.246223	
 -1.145257	 -0.929492	  0.533740	 -1.198045	  1.602435	 -0.238589	
 -1.152487	 -0.929516	  0.533812	 -1.198128	  1.602447	 -0.230858	
 -1.159764	 -0.929492	  0.533775	 -1.198092	  1.602471	 -0.223439	
 -1.167126	 -0.929492	  0.533740	 -1.198117	  1.602471	 -0.215684	
 -1.174452	 -0.929516	  0.533775	 -1.198117	  1.602327	 -0.208505	
 -1.181621	 -0.929516	  0.533763	 -1.198140	  1.602471	 -0.200822	
 -1.188636	 -0.929504	  0.533763	 -1.198117	  1.602435	 -0.193355	
 -1.195842	 -0.929516	  0.533763	 -1.198117	  1.602387	 -0.186223	
 -1.202917	 -0.929528	  0.533751	 -1.198068	  1.602447	 -0.178828	
 -1.209931	 -0.929492	  0.533740	 -1.198164	  1.602363	 -0.171624	
 -1.216826	 -0.929516	  0.533775	 -1.198008	  1.602399	 -0.164409	
 -1.223745	 -0.929480	  0.533775	 -1.198128	  1.602435	 -0.157121	
 -1.230653	 -0.929480	  0.533775	 -1.198068	  1.602447	 -0.150181	
 -1.237679	 -0.929467	  0.533740	 -1.198117	  1.602399	 -0.142810	
 -1.244371	 -0.929480	  0.533763	 -1.198128	  1.602435	 -0.135618	
 -1.251038	 -0.929528	  0.533763	 -1.198068	  1.602375	 -0.128714	
 -1.257802	 -0.929492	  0.533751	 -1.198080	  1.602435	 -0.121630	
 -1.264494	 -0.929504	  0.533788	 -1.198140	  1.602399	 -0.114930	
 -1.271281	 -0.929528	  0.533751	 -1.198117	  1.602327	 -0.108121	
 -1.277003	 -0.929480	  0.533751	 -1.198104	  1.602411	 -0.101073	
 -1.283983	 -0.929504	  0.533775	 -1.198080	  1.602447	 -0.094373	
 -1.290638	 -0.929540	  0.533728	 -1.198080	  1.602375	 -0.087540	
 -1.297187	 -0.929504	  0.533763	 -1.198117	  1.602399	 -0.080864	
 -1.303675	 -0.929516	  0.533728	 -1.198104	  1.602375	 -0.074104	
 -1.310020	 -0.929492	  0.533728	 -1.198092	  1.602387	 -0.067032	
 -1.316413	 -0.929540	  0.533763	 -1.198152	  1.602423	 -0.060786	
 -1.322818	 -0.929528	  0.533740	 -1.198080	  1.602399	 -0.054230	
 -1.329223	 -0.929504	  0.533728	 -1.198152	  1.602375	 -0.047613	
 -1.335520	 -0.929516	  0.533751	 -1.198092	  1.602411	 -0.041200	
 -1.341649	 -0.929480	  0.533716	 -1.198104	  1.602363	 -0.034571	
 -1.347851	 -0.929504	  0.533763	 -1.198152	  1.602471	 -0.028194	
 -1.354052	 -0.929552	  0.533740	 -1.198080	  1.602459	 -0.021864	
 -1.360266	 -0.929516	  0.533716	 -1.198092	  1.602447	 -0.015236	
 -1.366360	 -0.929516	  0.533716	 -1.198128	  1.602423	 -0.009182	
 -1.372322	 -0.929516	  0.533751	 -1.198080	  1.602399	 -0.002925	
 -1.378320	 -0.929516	  0.533763	 -1.198092	  1.602495	  0.003404	
 -1.384234	 -0.929528	  0.533740	 -1.198117	  1.602531	  0.009386	
 -1.390173	 -0.929516	  0.533763	 -1.198080	  1.602507	  0.015391	
 -1.396003	 -0.929492	  0.533728	 -1.198080	  1.602435	  0.021457	
 -1.401594	 -0.929516	  0.533740	 -1.198117	  1.602483	  0.027271	
 -1.407282	 -0.929516	  0.533775	 -1.198057	  1.602483	  0.033277	
 -1.412896	 -0.929467	  0.533751	 -1.198092	  1.602519	  0.039235	
 -1.418560	 -0.929492	  0.533740	 -1.198092	  1.602495	  0.044833	
 -1.424103	 -0.929516	  0.533728	 -1.198057	  1.602471	  0.050851	
 -1.429587	 -0.929540	  0.533716	 -1.198140	  1.602483	  0.056569	
 -1.434855	 -0.929516	  0.533751	 -1.198140	  1.602543	  0.061700	
 -1.440135	 -0.929480	  0.533763	 -1.198092	  1.602543	  0.067370	
 -1.445415	 -0.929540	  0.533751	 -1.198117	  1.602507	  0.072824	
 -1.450611	 -0.929528	  0.533740	 -1.198104	  1.602507	  0.077967	
 -1.455725	 -0.929504	  0.533704	 -1.198092	  1.602447	  0.083386	
 -1.460753	 -0.929504	  0.533751	 -1.198164	  1.602495	  0.088804	
 -1.465674	 -0.929480	  0.533751	 -1.198092	  1.602543	  0.093539	
 -1.470571	 -0.929528	  0.533740	 -1.198057	  1.602495	  0.098838	
 -1.475480	 -0.929540	  0.533740	 -1.198092	  1.602507	  0.103969	
 -1.480318	 -0.929540	  0.533751	 -1.198068	  1.602555	  0.108716	
 -1.485059	 -0.929516	  0.533728	 -1.198057	  1.602507	  0.113859	
 -1.489765	 -0.929504	  0.533740	 -1.198104	  1.602447	  0.118654	
 -1.494267	 -0.929516	  0.533740	 -1.198092	  1.602471	  0.123234	
 -1.498781	 -0.929516	  0.533704	 -1.198020	  1.602507	  0.128065	
 -1.503236	 -0.929528	  0.533751	 -1.198092	  1.602543	  0.132537	
 -1.507702	 -0.929516	  0.533740	 -1.198068	  1.602495	  0.137044	
 -1.512156	 -0.929492	  0.533691	 -1.198045	  1.602483	  0.141816	
 -1.516563	 -0.929540	  0.533751	 -1.198068	  1.602447	  0.146239	
 -1.520885	 -0.929516	  0.533740	 -1.198080	  1.602459	  0.150651	
 -1.525076	 -0.929504	  0.533704	 -1.198068	  1.602495	  0.155147	
 -1.529279	 -0.929516	  0.533763	 -1.198104	  1.602507	  0.159283	
 -1.533434	 -0.929528	  0.533740	 -1.198033	  1.602531	  0.163527	
 -1.537482	 -0.929552	  0.533728	 -1.198045	  1.602495	  0.168083	
 -1.541553	 -0.929516	  0.533740	 -1.198092	  1.602531	  0.172207	
 -1.545528	 -0.929528	  0.533763	 -1.198104	  1.602483	  0.176186	
 -1.549492	 -0.929480	  0.533704	 -1.198045	  1.602459	  0.180646	
 -1.553384	 -0.929528	  0.533740	 -1.198033	  1.602471	  0.184483	
 -1.557216	 -0.929504	  0.533728	 -1.198080	  1.602495	  0.188319	
 -1.561096	 -0.929516	  0.533740	 -1.198068	  1.602519	  0.192467	
 -1.564843	 -0.929492	  0.533740	 -1.198080	  1.602555	  0.196184	
 -1.568664	 -0.929528	  0.533728	 -1.198020	  1.602483	  0.200020	
 -1.572376	 -0.929480	  0.533716	 -1.198092	  1.602519	  0.204012	
 -1.576004	 -0.929516	  0.533740	 -1.198128	  1.602495	  0.207597	
 -1.579704	 -0.929516	  0.533704	 -1.198008	  1.602435	  0.211433	
 -1.583333	 -0.929516	  0.533716	 -1.198068	  1.602435	  0.215461	
 -1.586841	 -0.929540	  0.533728	 -1.198045	  1.602495	  0.218783	
 -1.590362	 -0.929504	  0.533691	 -1.198045	  1.602519	  0.222619	
 -1.593787	 -0.929528	  0.533716	 -1.198045	  1.602495	  0.226168	
 -1.597224	 -0.929528	  0.533679	 -1.198045	  1.602519	  0.229680	
 -1.600613	 -0.929552	  0.533691	 -1.198104	  1.602507	  0.233349	
 -1.603942	 -0.929540	  0.533716	 -1.198068	  1.602483	  0.236610	
 -1.607271	 -0.929480	  0.533656	 -1.198080	  1.602507	  0.240195	
 -1.610576	 -0.929516	  0.533691	 -1.198057	  1.602435	  0.243563	
 -1.613882	 -0.929564	  0.533668	 -1.197996	  1.602399	  0.246896	
 -1.617116	 -0.929504	  0.533691	 -1.198045	  1.602483	  0.250325	
 -1.620253	 -0.929516	  0.533716	 -1.198092	  1.602531	  0.253406	
 -1.623390	 -0.929516	  0.533704	 -1.198033	  1.602531	  0.256511	
 -1.626432	 -0.929504	  0.533656	 -1.198033	  1.602543	  0.259905	
 -1.629498	 -0.929504	  0.533704	 -1.198080	  1.602507	  0.262866	
 -1.632444	 -0.929528	  0.533679	 -1.198104	  1.602483	  0.265959	
 -1.635450	 -0.929492	  0.533668	 -1.198057	  1.602447	  0.269172	
 -1.638300	 -0.929504	  0.533668	 -1.198092	  1.602519	  0.272013	
 -1.641235	 -0.929516	  0.533679	 -1.198033	  1.602399	  0.275166	
 -1.644181	 -0.929516	  0.533704	 -1.198068	  1.602447	  0.278176	
 -1.647019	 -0.929540	  0.533704	 -1.198068	  1.602507	  0.280874	
 -1.649797	 -0.929504	  0.533691	 -1.198057	  1.602483	  0.283919	
 -1.652528	 -0.929492	  0.533679	 -1.198104	  1.602507	  0.286736	
 -1.655175	 -0.929492	  0.533691	 -1.198045	  1.602519	  0.289386	
 -1.657761	 -0.929504	  0.533691	 -1.198068	  1.602519	  0.292419	
 -1.660264	 -0.929492	  0.533691	 -1.198117	  1.602471	  0.294925	
 -1.662827	 -0.929528	  0.533668	 -1.198020	  1.602459	  0.297622	
 -1.665330	 -0.929516	  0.533668	 -1.198068	  1.602435	  0.300392	
 -1.667821	 -0.929492	  0.533668	 -1.198057	  1.602435	  0.302742	
 -1.670325	 -0.929516	  0.533644	 -1.198068	  1.602447	  0.305391	
 -1.672839	 -0.929480	  0.533691	 -1.198092	  1.602483	  0.307993	
 -1.675235	 -0.929516	  0.533704	 -1.198068	  1.602483	  0.310224	
 -1.677678	 -0.929516	  0.533668	 -1.198045	  1.602495	  0.312669	
 -1.679906	 -0.929540	  0.533691	 -1.198104	  1.602483	  0.314923	
 -1.682122	 -0.929516	  0.533679	 -1.198068	  1.602507	  0.317033	
 -1.684253	 -0.929528	  0.533668	 -1.198020	  1.602495	  0.319443	
 -1.686229	 -0.929540	  0.533704	 -1.198117	  1.602507	  0.321589	
 -1.688205	 -0.929516	  0.533668	 -1.198068	  1.602471	  0.323700	
 -1.690217	 -0.929480	  0.533656	 -1.198068	  1.602435	  0.325893	
 -1.692194	 -0.929516	  0.533668	 -1.198033	  1.602435	  0.327896	
 -1.694134	 -0.929504	  0.533668	 -1.198117	  1.602411	  0.329910	
 -1.696074	 -0.929528	  0.533691	 -1.198057	  1.602471	  0.331912	
 -1.698002	 -0.929480	  0.533668	 -1.198104	  1.602435	  0.333915	
 -1.699871	 -0.929540	  0.533668	 -1.198117	  1.602495	  0.335785	
 -1.701715	 -0.929516	  0.533691	 -1.198080	  1.602495	  0.337703	
 -1.703512	 -0.929504	  0.533691	 -1.198068	  1.602495	  0.339526	
 -1.705224	 -0.929492	  0.533691	 -1.198068	  1.602495	  0.341252	
 -1.706841	 -0.929516	  0.533691	 -1.198057	  1.602459	  0.342955	
 -1.708218	 -0.929504	  0.533668	 -1.198068	  1.602483	  0.344513	
 -1.709799	 -0.929516	  0.533679	 -1.198092	  1.602483	  0.346096	
 -1.711225	 -0.929504	  0.533668	 -1.198080	  1.602519	  0.347607	
 -1.712578	 -0.929516	  0.533691	 -1.198080	  1.602459	  0.349033	
 -1.713932	 -0.929516	  0.533691	 -1.198080	  1.602471	  0.350460	
 -1.715213	 -0.929504	  0.533704	 -1.198068	  1.602459	  0.351803	
 -1.716423	 -0.929516	  0.533716	 -1.198068	  1.602459	  0.353158	
 -1.717596	 -0.929504	  0.533668	 -1.198068	  1.602495	  0.354453	
 -1.718770	 -0.929480	  0.533668	 -1.198068	  1.602471	  0.355592	
 -1.719836	 -0.929516	  0.533716	 -1.198080	  1.602435	  0.356815	
 -1.720974	 -0.929504	  0.533704	 -1.198045	  1.602471	  0.357918	
 -1.722040	 -0.929480	  0.533704	 -1.198045	  1.602471	  0.358997	
 -1.723022	 -0.929504	  0.533668	 -1.198068	  1.602459	  0.359956	
 -1.723968	 -0.929528	  0.533716	 -1.198080	  1.602495	  0.360927	
 -1.724807	 -0.929480	  0.533668	 -1.198057	  1.602483	  0.361815	
 -1.725681	 -0.929492	  0.533668	 -1.198092	  1.602495	  0.362666	
 -1.726507	 -0.929492	  0.533679	 -1.198092	  1.602471	  0.363493	
 -1.727286	 -0.929492	  0.533691	 -1.198092	  1.602471	  0.364273	
 -1.727957	 -0.929492	  0.533656	 -1.198104	  1.602471	  0.365075	
 -1.728747	 -0.929480	  0.533679	 -1.198068	  1.602483	  0.365687	
 -1.729334	 -0.929504	  0.533679	 -1.198068	  1.602459	  0.366406	
 -1.729981	 -0.929480	  0.533679	 -1.198117	  1.602483	  0.367054	
 -1.730543	 -0.929504	  0.533679	 -1.198068	  1.602471	  0.367654	
 -1.731059	 -0.929516	  0.533691	 -1.198068	  1.602471	  0.368241	
 -1.731610	 -0.929504	  0.533668	 -1.198068	  1.602447	  0.368721	
 -1.732089	 -0.929492	  0.533668	 -1.198104	  1.602435	  0.369248	
 -1.732496	 -0.929467	  0.533679	 -1.198092	  1.602459	  0.369716	
 -1.732940	 -0.929504	  0.533704	 -1.198068	  1.602471	  0.370147	
 -1.733346	 -0.929516	  0.533668	 -1.198104	  1.602495	  0.370603	
 -1.733706	 -0.929467	  0.533668	 -1.198080	  1.602447	  0.370950	
 -1.734089	 -0.929504	  0.533668	 -1.198128	  1.602495	  0.371370	
 -1.734437	 -0.929480	  0.533668	 -1.198092	  1.602459	  0.371766	
 -1.734724	 -0.929516	  0.533691	 -1.198117	  1.602495	  0.372042	
 -1.735023	 -0.929492	  0.533679	 -1.198092	  1.602447	  0.372330	
 -1.735335	 -0.929504	  0.533691	 -1.198045	  1.602483	  0.372605	
 -1.735598	 -0.929492	  0.533679	 -1.198068	  1.602459	  0.372893	
 -1.735862	 -0.929516	  0.533644	 -1.198080	  1.602495	  0.373145	
 -1.736065	 -0.929504	  0.533679	 -1.198045	  1.602483	  0.373420	
 -1.736329	 -0.929480	  0.533691	 -1.198068	  1.602459	  0.373624	
 -1.736509	 -0.929480	  0.533668	 -1.198057	  1.602471	  0.373864	
 -1.736724	 -0.929467	  0.533668	 -1.198068	  1.602471	  0.374020	
 -1.736904	 -0.929492	  0.533704	 -1.198045	  1.602435	  0.374284	
 -1.737072	 -0.929455	  0.533679	 -1.198057	  1.602471	  0.374452	
 -1.737203	 -0.929467	  0.533704	 -1.198020	  1.602471	  0.374631	
 -1.737395	 -0.929480	  0.533679	 -1.198104	  1.602483	  0.374787	
 -1.737515	 -0.929492	  0.533656	 -1.198104	  1.602459	  0.374955	
 -1.737623	 -0.929516	  0.533679	 -1.198080	  1.602459	  0.375063	
 -1.737742	 -0.929492	  0.533691	 -1.198092	  1.602471	  0.375231	
 -1.737886	 -0.929504	  0.533679	 -1.198080	  1.602447	  0.375243	
 -1.737994	 -0.929504	  0.533679	 -1.198068	  1.602471	  0.375411	
 -1.738089	 -0.929492	  0.533668	 -1.198057	  1.602471	  0.375423	
 -1.738161	 -0.929516	  0.533679	 -1.198080	  1.602471	  0.375543	
 -1.738305	 -0.929455	  0.533668	 -1.198057	  1.602471	  0.375650	
 -1.738377	 -0.929492	  0.533691	 -1.198092	  1.602447	  0.375662	
 -1.738520	 -0.929480	  0.533691	 -1.198068	  1.602471	  0.375819	
 -1.738509	 -0.929492	  0.533656	 -1.198045	  1.602459	  0.375794	
 -1.738629	 -0.929528	  0.533691	 -1.198057	  1.602459	  0.375938	
 -1.738700	 -0.929516	  0.533656	 -1.198057	  1.602447	  0.375986	
 -1.738736	 -0.929480	  0.533668	 -1.198068	  1.602459	  0.376046	
 -1.738785	 -0.929504	  0.533679	 -1.198104	  1.602483	  0.376166	
 -1.738868	 -0.929492	  0.533679	 -1.198092	  1.602471	  0.376142	
 -1.738868	 -0.929516	  0.533691	 -1.198068	  1.602471	  0.376214	
 -1.738940	 -0.929504	  0.533704	 -1.198045	  1.602459	  0.376310	
 -1.738988	 -0.929480	  0.533668	 -1.198057	  1.602447	  0.376370	
 -1.738976	 -0.929516	  0.533679	 -1.198057	  1.602459	  0.376394	
 -1.739012	 -0.929480	  0.533704	 -1.198057	  1.602483	  0.376478	
 -1.739096	 -0.929516	  0.533691	 -1.198068	  1.602459	  0.376442	
 -1.739096	 -0.929492	  0.533668	 -1.198068	  1.602447	  0.376550	
 -1.739120	 -0.929480	  0.533668	 -1.198045	  1.602471	  0.376514	
 -1.739132	 -0.929480	  0.533691	 -1.198068	  1.602471	  0.376538	
 -1.739204	 -0.929467	  0.533679	 -1.198020	  1.602423	  0.376634	
 -1.739216	 -0.929504	  0.533668	 -1.198045	  1.602447	  0.376574	
 -1.739240	 -0.929492	  0.533679	 -1.198068	  1.602423	  0.376766	
 -1.739287	 -0.929540	  0.533668	 -1.198033	  1.602483	  0.376658	
 -1.739287	 -0.929516	  0.533691	 -1.198033	  1.602447	  0.376766	
 -1.739311	 -0.929467	  0.533716	 -1.198008	  1.602483	  0.376850	
 -1.739323	 -0.929467	  0.533691	 -1.198045	  1.602459	  0.376754	
 -1.739347	 -0.929480	  0.533668	 -1.198020	  1.602471	  0.376933	
 -1.739383	 -0.929480	  0.533704	 -1.198020	  1.602471	  0.376898	
 -1.739407	 -0.929480	  0.533679	 -1.198045	  1.602459	  0.376957	
 -1.739419	 -0.929504	  0.533656	 -1.198033	  1.602471	  0.377017	
 -1.739419	 -0.929480	  0.533691	 -1.198033	  1.602471	  0.376898	
 -1.739443	 -0.929480	  0.533668	 -1.198020	  1.602435	  0.377101	
 -1.739443	 -0.929467	  0.533668	 -1.198045	  1.602483	  0.376981	
 -1.739479	 -0.929504	  0.533691	 -1.198057	  1.602447	  0.377029	
 -1.739491	 -0.929528	  0.533691	 -1.198045	  1.602459	  0.377113	
 -1.739503	 -0.929492	  0.533679	 -1.197996	  1.602471	  0.376945	
 -1.739527	 -0.929480	  0.533656	 -1.198033	  1.602459	  0.377113	
 -1.739491	 -0.929516	  0.533691	 -1.198033	  1.602459	  0.377065	
 -1.739563	 -0.929467	  0.533704	 -1.198057	  1.602459	  0.377029	
 -1.739575	 -0.929492	  0.533679	 -1.198033	  1.602459	  0.377185	
 -1.739611	 -0.929492	  0.533679	 -1.198020	  1.602423	  0.377065	
 -1.739587	 -0.929492	  0.533668	 -1.198020	  1.602459	  0.377101	
 -1.739575	 -0.929504	  0.533656	 -1.197996	  1.602459	  0.377173	
 -1.739587	 -0.929504	  0.533679	 -1.198033	  1.602435	  0.377041	
 -1.739635	 -0.929492	  0.533668	 -1.198020	  1.602483	  0.377173	
 -1.739647	 -0.929480	  0.533679	 -1.198020	  1.602471	  0.377137	
 -1.739623	 -0.929480	  0.533679	 -1.198045	  1.602459	  0.377113	
 -1.739671	 -0.929504	  0.533679	 -1.197961	  1.602471	  0.377221	
 -1.739659	 -0.929480	  0.533644	 -1.197901	  1.602483	  0.377101	
 -1.739647	 -0.929480	  0.533668	 -1.197913	  1.602483	  0.377197	
 -1.739671	 -0.929480	  0.533691	 -1.197901	  1.602435	  0.377209	
 -1.739707	 -0.929504	  0.533668	 -1.197901	  1.602435	  0.377101	
 -1.739683	 -0.929492	  0.533704	 -1.197961	  1.602483	  0.377269	
 -1.739683	 -0.929480	  0.533668	 -1.197936	  1.602435	  0.377137	
 -1.739683	 -0.929504	  0.533656	 -1.197936	  1.602459	  0.377161	
 -1.739695	 -0.929467	  0.533668	 -1.197949	  1.602459	  0.377149	
 -1.739659	 -0.929467	  0.533668	 -1.197889	  1.602459	  0.377209	
 -1.739695	 -0.929516	  0.533704	 -1.197925	  1.602423	  0.377173	
 -1.739659	 -0.929504	  0.533668	 -1.197961	  1.602507	  0.377185	
 -1.739707	 -0.929492	  0.533679	 -1.197936	  1.602447	  0.377185	
 -1.739659	 -0.929504	  0.533691	 -1.197913	  1.602447	  0.377209	
 -1.739695	 -0.929467	  0.533679	 -1.197936	  1.602459	  0.377173	
 -1.739671	 -0.929504	  0.533668	 -1.197901	  1.602447	  0.377185	
 -1.739695	 -0.929492	  0.533668	 -1.197925	  1.602435	  0.377173	
 -1.739671	 -0.929480	  0.533668	 -1.197925	  1.602399	  0.377185	
 -1.739719	 -0.929467	  0.533644	 -1.197889	  1.602471	  0.377173	
 -1.739683	 -0.929492	  0.533679	 -1.197949	  1.602435	  0.377185	
 -1.739671	 -0.929467	  0.533704	 -1.197925	  1.602435	  0.377185	
 -1.739659	 -0.929480	  0.533656	 -1.197925	  1.602459	  0.377233	
 -1.739671	 -0.929492	  0.533679	 -1.197936	  1.602483	  0.377173	
 -1.739683	 -0.929455	  0.533691	 -1.197925	  1.602471	  0.377173	
 -1.739695	 -0.929504	  0.533679	 -1.197925	  1.602459	  0.377197	
 -1.739719	 -0.929480	  0.533691	 -1.197936	  1.602399	  0.377221	
 -1.739719	 -0.929504	  0.533668	 -1.197949	  1.602447	  0.377233	
 -1.739731	 -0.929467	  0.533656	 -1.197913	  1.602471	  0.377197	
 -1.739743	 -0.929504	  0.533716	 -1.197949	  1.602471	  0.377233	
 -1.739766	 -0.929516	  0.533704	 -1.197889	  1.602471	  0.377269	
 -1.739863	 -0.929504	  0.533668	 -1.197936	  1.602471	  0.377341	
 -1.739946	 -0.929492	  0.533691	 -1.197925	  1.602447	  0.377293	
 -1.739958	 -0.929480	  0.533679	 -1.197913	  1.602459	  0.377377	
 -1.740102	 -0.929480	  0.533679	 -1.197925	  1.602447	  0.377521	
 -1.740246	 -0.929480	  0.533656	 -1.197901	  1.602435	  0.377533	
 -1.740413	 -0.929492	  0.533679	 -1.197925	  1.602435	  0.377641	
 -1.740533	 -0.929480	  0.533691	 -1.197925	  1.602435	  0.377773	
 -1.740725	 -0.929480	  0.533668	 -1.197901	  1.602459	  0.377881	
 -1.740892	 -0.929480	  0.533668	 -1.197925	  1.602411	  0.378133	
 -1.741180	 -0.929492	  0.533679	 -1.197913	  1.602447	  0.378300	
 -1.741432	 -0.929480	  0.533668	 -1.197936	  1.602459	  0.378528	
 -1.741611	 -0.929492	  0.533691	 -1.197889	  1.602459	  0.378792	
 -1.741922	 -0.929467	  0.533668	 -1.197925	  1.602471	  0.379044	
 -1.742234	 -0.929480	  0.533704	 -1.197913	  1.602447	  0.379355	
 -1.742593	 -0.929480	  0.533668	 -1.197925	  1.602435	  0.379727	
 -1.742904	 -0.929480	  0.533668	 -1.197949	  1.602471	  0.380087	
 -1.743348	 -0.929516	  0.533668	 -1.197925	  1.602471	  0.380483	
 -1.743815	 -0.929480	  0.533691	 -1.197901	  1.602435	  0.380962	
 -1.744294	 -0.929480	  0.533679	 -1.197889	  1.602435	  0.381429	
 -1.744797	 -0.929516	  0.533691	 -1.197925	  1.602447	  0.381933	
 -1.745420	 -0.929467	  0.533679	 -1.197901	  1.602459	  0.382509	
 -1.746043	 -0.929504	  0.533691	 -1.197913	  1.602435	  0.383036	
 -1.746702	 -0.929516	  0.533668	 -1.197925	  1.602495	  0.383648	
 -1.747444	 -0.929480	  0.533679	 -1.197925	  1.602447	  0.384319	
 -1.748163	 -0.929467	  0.533679	 -1.197901	  1.602447	  0.385027	
 -1.748941	 -0.929455	  0.533668	 -1.197936	  1.602447	  0.385806	
 -1.749804	 -0.929504	  0.533679	 -1.197901	  1.602447	  0.386550	
 -1.750606	 -0.929504	  0.533668	 -1.197925	  1.602435	  0.387425	
 -1.751624	 -0.929504	  0.533679	 -1.197961	  1.602435	  0.388300	
 -1.752594	 -0.929516	  0.533668	 -1.197936	  1.602459	  0.389199	
 -1.753589	 -0.929480	  0.533668	 -1.197889	  1.602435	  0.390086	
 -1.754715	 -0.929492	  0.533679	 -1.197901	  1.602399	  0.391106	
 -1.755829	 -0.929492	  0.533679	 -1.197913	  1.602459	  0.392161	
 -1.757014	 -0.929504	  0.533679	 -1.197913	  1.602435	  0.393204	
 -1.758296	 -0.929504	  0.533679	 -1.197949	  1.602423	  0.394331	
 -1.759577	 -0.929492	  0.533691	 -1.197901	  1.602459	  0.395578	
 -1.760943	 -0.929480	  0.533691	 -1.197949	  1.602483	  0.396801	
 -1.762308	 -0.929467	  0.533691	 -1.197913	  1.602435	  0.398072	
 -1.763734	 -0.929492	  0.533632	 -1.197889	  1.602471	  0.399403	
 -1.765207	 -0.929455	  0.533668	 -1.197913	  1.602423	  0.400757	
 -1.766717	 -0.929480	  0.533679	 -1.197913	  1.602435	  0.402232	
 -1.768261	 -0.929492	  0.533704	 -1.197901	  1.602435	  0.403635	
 -1.769866	 -0.929516	  0.533691	 -1.197949	  1.602435	  0.405109	
 -1.771495	 -0.929480	  0.533668	 -1.197925	  1.602411	  0.406596	
 -1.773160	 -0.929492	  0.533679	 -1.197913	  1.602471	  0.408155	
 -1.774837	 -0.929492	  0.533679	 -1.197889	  1.602483	  0.409738	
 -1.776622	 -0.929492	  0.533679	 -1.197901	  1.602447	  0.411368	
 -1.778383	 -0.929504	  0.533656	 -1.197913	  1.602447	  0.413059	
 -1.780191	 -0.929516	  0.533679	 -1.197925	  1.602447	  0.414798	
 -1.782084	 -0.929480	  0.533679	 -1.197936	  1.602435	  0.416608	
 -1.784025	 -0.929455	  0.533716	 -1.197913	  1.602423	  0.418407	
 -1.785989	 -0.929516	  0.533691	 -1.197936	  1.602435	  0.420301	
 -1.788049	 -0.929480	  0.533644	 -1.197925	  1.602435	  0.422195	
 -1.790205	 -0.929492	  0.533679	 -1.197913	  1.602435	  0.424186	
 -1.792397	 -0.929467	  0.533656	 -1.197852	  1.602411	  0.426128	
 -1.794649	 -0.929467	  0.533679	 -1.197925	  1.602435	  0.428214	
 -1.796949	 -0.929492	  0.533656	 -1.197961	  1.602447	  0.430373	
 -1.799237	 -0.929455	  0.533656	 -1.197901	  1.602459	  0.432471	
 -1.801585	 -0.929516	  0.533668	 -1.197925	  1.602459	  0.434605	
 -1.803944	 -0.929504	  0.533691	 -1.197901	  1.602435	  0.436763	
 -1.806328	 -0.929480	  0.533668	 -1.197936	  1.602435	  0.438933	
 -1.808724	 -0.929480	  0.533679	 -1.197913	  1.602447	  0.441116	
 -1.811132	 -0.929480	  0.533679	 -1.197913	  1.602423	  0.443406	
 -1.813551	 -0.929443	  0.533668	 -1.197913	  1.602435	  0.445756	
 -1.816139	 -0.929467	  0.533668	 -1.197949	  1.602423	  0.448118	
 -1.818666	 -0.929504	  0.533679	 -1.197961	  1.602435	  0.450624	
 -1.821349	 -0.929480	  0.533668	 -1.197913	  1.602435	  0.453034	
 -1.824117	 -0.929492	  0.533668	 -1.197949	  1.602411	  0.455492	
 -1.826896	 -0.929455	  0.533656	 -1.197925	  1.602423	  0.458070	
 -1.829723	 -0.929443	  0.533691	 -1.197936	  1.602435	  0.460696	
 -1.832633	 -0.929455	  0.533691	 -1.197925	  1.602447	  0.463334	
 -1.835544	 -0.929492	  0.533656	 -1.197913	  1.602447	  0.466128	
 -1.838407	 -0.929480	  0.533679	 -1.197913	  1.602459	  0.468766	
 -1.841342	 -0.929467	  0.533668	 -1.197925	  1.602483	  0.471451	
 -1.844169	 -0.929492	  0.533668	 -1.197949	  1.602459	  0.474149	
 -1.847092	 -0.929492	  0.533704	 -1.197925	  1.602447	  0.476955	
 -1.850087	 -0.929480	  0.533668	 -1.197901	  1.602447	  0.479772	
 -1.853082	 -0.929480	  0.533668	 -1.197936	  1.602435	  0.482650	
 -1.856184	 -0.929480	  0.533668	 -1.197936	  1.602399	  0.485468	
 -1.859395	 -0.929480	  0.533679	 -1.197901	  1.602411	  0.488382	
 -1.862653	 -0.929467	  0.533668	 -1.197889	  1.602411	  0.491403	
 -1.865528	 -0.929467	  0.533704	 -1.197949	  1.602399	  0.494437	
 -1.869038	 -0.929480	  0.533656	 -1.197901	  1.602459	  0.497518	
 -1.872297	 -0.929492	  0.533704	 -1.197925	  1.602423	  0.500492	
 -1.875591	 -0.929467	  0.533704	 -1.197913	  1.602495	  0.503478	
 -1.878897	 -0.929480	  0.533691	 -1.197936	  1.602447	  0.506607	
 -1.882192	 -0.929480	  0.533668	 -1.197961	  1.602435	  0.509629	
 -1.885582	 -0.929504	  0.533644	 -1.197949	  1.602399	  0.512794	
 -1.888936	 -0.929492	  0.533656	 -1.197889	  1.602387	  0.516008	
 -1.892362	 -0.929480	  0.533668	 -1.197925	  1.602411	  0.519089	
 -1.895921	 -0.929467	  0.533656	 -1.197925	  1.602399	  0.522339	
 -1.899431	 -0.929492	  0.533679	 -1.197865	  1.602435	  0.525732	
 -1.903001	 -0.929480	  0.533656	 -1.197949	  1.602435	  0.529113	
 -1.906631	 -0.929480	  0.533691	 -1.197936	  1.602459	  0.532423	
 -1.910321	 -0.929492	  0.533691	 -1.197913	  1.602459	  0.535768	
 -1.913951	 -0.929504	  0.533691	 -1.197925	  1.602483	  0.539221	
 -1.917665	 -0.929516	  0.533656	 -1.197901	  1.602423	  0.542615	
 -1.921439	 -0.929492	  0.533704	 -1.197925	  1.602351	  0.546152	
 -1.925200	 -0.929504	  0.533679	 -1.197889	  1.602351	  0.549713	
 -1.929034	 -0.929467	  0.533679	 -1.197901	  1.602399	  0.553311	
 -1.932880	 -0.929467	  0.533668	 -1.197913	  1.602435	  0.556956	
 -1.936846	 -0.929443	  0.533691	 -1.197925	  1.602435	  0.560625	
 -1.940859	 -0.929492	  0.533704	 -1.197901	  1.602435	  0.564342	
 -1.944957	 -0.929455	  0.533691	 -1.197913	  1.602435	  0.567999	
 -1.949102	 -0.929480	  0.533704	 -1.197961	  1.602435	  0.571848	
 -1.953331	 -0.929467	  0.533691	 -1.197913	  1.602399	  0.575757	
 -1.957656	 -0.929492	  0.533679	 -1.197901	  1.602387	  0.579726	
 -1.961933	 -0.929480	  0.533644	 -1.197925	  1.602411	  0.583707	
 -1.966295	 -0.929480	  0.533691	 -1.197936	  1.602411	  0.587832	
 -1.970668	 -0.929480	  0.533679	 -1.197925	  1.602411	  0.592089	
 -1.975221	 -0.929431	  0.533691	 -1.197901	  1.602411	  0.596202	
 -1.979786	 -0.929467	  0.533668	 -1.197925	  1.602423	  0.600482	
 -1.984482	 -0.929516	  0.533656	 -1.197925	  1.602411	  0.604715	
 -1.989274	 -0.929480	  0.533679	 -1.197913	  1.602447	  0.609128	
 -1.993983	 -0.929467	  0.533679	 -1.197913	  1.602411	  0.613601	
 -1.998692	 -0.929480	  0.533656	 -1.197901	  1.602423	  0.618265	
 -2.003640	 -0.929455	  0.533679	 -1.197925	  1.602471	  0.622894	
 -2.008601	 -0.929504	  0.533668	 -1.197913	  1.602459	  0.627390	
 -2.013741	 -0.929455	  0.533656	 -1.197913	  1.602483	  0.632067	
 -2.018845	 -0.929504	  0.533668	 -1.197925	  1.602447	  0.636719	
 -2.024034	 -0.929492	  0.533668	 -1.197925	  1.602351	  0.641408	
 -2.029234	 -0.929480	  0.533668	 -1.197949	  1.602411	  0.646288	
 -2.034530	 -0.929467	  0.533668	 -1.197949	  1.602423	  0.651313	
 -2.039886	 -0.929467	  0.533716	 -1.197936	  1.602447	  0.656289	
 -2.045362	 -0.929455	  0.533679	 -1.197901	  1.602423	  0.661337	
 -2.050839	 -0.929467	  0.533691	 -1.197889	  1.602423	  0.666361	
 -2.056338	 -0.929467	  0.533656	 -1.197936	  1.602411	  0.671421	
 -2.061838	 -0.929480	  0.533691	 -1.197925	  1.602411	  0.676662	
 -2.067482	 -0.929492	  0.533691	 -1.197901	  1.602447	  0.682106	
 -2.073210	 -0.929443	  0.533668	 -1.197925	  1.602423	  0.687466	
 -2.078986	 -0.929492	  0.533691	 -1.197877	  1.602387	  0.692526	
 -2.084798	 -0.929504	  0.533668	 -1.197913	  1.602387	  0.697802	
 -2.090502	 -0.929467	  0.533679	 -1.197901	  1.602423	  0.703139	
 -2.096302	 -0.929467	  0.533656	 -1.197901	  1.602447	  0.708475	
 -2.102245	 -0.929467	  0.533679	 -1.197901	  1.602435	  0.714159	
 -2.108261	 -0.929455	  0.533716	 -1.197913	  1.602459	  0.719867	
 -2.114301	 -0.929443	  0.533704	 -1.197865	  1.602423	  0.725323	
 -2.120305	 -0.929480	  0.533668	 -1.197925	  1.602387	  0.730839	
 -2.126261	 -0.929443	  0.533656	 -1.197913	  1.602435	  0.736667	
 -2.132420	 -0.929467	  0.533691	 -1.197936	  1.602411	  0.742483	
 -2.138688	 -0.929467	  0.533656	 -1.197913	  1.602471	  0.748370	
 -2.144932	 -0.929443	  0.533691	 -1.197865	  1.602459	  0.754042	
 -2.151140	 -0.929467	  0.533668	 -1.197925	  1.602387	  0.759606	
 -2.157443	 -0.929455	  0.533679	 -1.197913	  1.602399	  0.765410	
 -2.163819	 -0.929443	  0.533668	 -1.197925	  1.602423	  0.771346	
 -2.170375	 -0.929467	  0.533656	 -1.197949	  1.602423	  0.777522	
 -2.176978	 -0.929467	  0.533679	 -1.197889	  1.602435	  0.783614	
 -2.183498	 -0.929455	  0.533656	 -1.197913	  1.602435	  0.789598	
 -2.189958	 -0.929455	  0.533679	 -1.197925	  1.602399	  0.795665	
 -2.196634	 -0.929467	  0.533679	 -1.197936	  1.602447	  0.801913	
 -2.203417	 -0.929492	  0.533704	 -1.197901	  1.602411	  0.808281	
 -2.210201	 -0.929455	  0.533668	 -1.197949	  1.602387	  0.814444	
 -2.216900	 -0.929443	  0.533679	 -1.197925	  1.602435	  0.820512	
 -2.223672	 -0.929467	  0.533704	 -1.197936	  1.602447	  0.826760	
 -2.230612	 -0.929455	  0.533668	 -1.197913	  1.602375	  0.832959	
 -2.237504	 -0.929431	  0.533679	 -1.197901	  1.602399	  0.839519	
 -2.244540	 -0.929455	  0.533691	 -1.197889	  1.602375	  0.846054	
 -2.251384	 -0.929455	  0.533691	 -1.197901	  1.602447	  0.852566	
 -2.258516	 -0.929467	  0.533704	 -1.197913	  1.602447	  0.859197	
 -2.265647	 -0.929431	  0.533668	 -1.197925	  1.602423	  0.865865	
 -2.272851	 -0.929431	  0.533691	 -1.197901	  1.602363	  0.872496	
 -2.279935	 -0.929443	  0.533691	 -1.197961	  1.602387	  0.878972	
 -2.287079	 -0.929455	  0.533679	 -1.197961	  1.602423	  0.885495	
 -2.294463	 -0.929467	  0.533679	 -1.197913	  1.602399	  0.892187	
 -2.301738	 -0.929480	  0.533704	 -1.197901	  1.602447	  0.899130	
 -2.309135	 -0.929431	  0.533679	 -1.197925	  1.602387	  0.906049	
 -2.316362	 -0.929455	  0.533704	 -1.197913	  1.602423	  0.912897	
 -2.323795	 -0.929431	  0.533679	 -1.197901	  1.602399	  0.919756	
 -2.331347	 -0.929455	  0.533668	 -1.197925	  1.602363	  0.926808	
 -2.338935	 -0.929480	  0.533691	 -1.197877	  1.602387	  0.933883	
 -2.346379	 -0.929455	  0.533679	 -1.197913	  1.602459	  0.941018	
 -2.353991	 -0.929467	  0.533691	 -1.197889	  1.602399	  0.947878	
 -2.361747	 -0.929431	  0.533679	 -1.197913	  1.602375	  0.954785	
 -2.369563	 -0.929443	  0.533679	 -1.197936	  1.602375	  0.962004	
 -2.377152	 -0.929419	  0.533704	 -1.197889	  1.602447	  0.969368	
 -2.384908	 -0.929431	  0.533716	 -1.197913	  1.602375	  0.976611	
 -2.392784	 -0.929419	  0.533668	 -1.197925	  1.602387	  0.983974	
 -2.400781	 -0.929443	  0.533691	 -1.197913	  1.602387	  0.991265	
 -2.408609	 -0.929419	  0.533691	 -1.197949	  1.602435	  0.998724	
 -2.416534	 -0.929480	  0.533679	 -1.197865	  1.602351	  1.006087	
 -2.424579	 -0.929431	  0.533691	 -1.197961	  1.602387	  1.013403	
 -2.432767	 -0.929431	  0.533704	 -1.197913	  1.602363	  1.020862	
 -2.440776	 -0.929443	  0.533728	 -1.197901	  1.602435	  1.028465	
 -2.448952	 -0.929419	  0.533704	 -1.197925	  1.602375	  1.036043	
 -2.456182	 -0.929419	  0.533691	 -1.197936	  1.602399	  1.043671	
 -2.464994	 -0.929443	  0.533716	 -1.197936	  1.602375	  1.051418	
 -2.473123	 -0.929480	  0.533716	 -1.197936	  1.602459	  1.059261	
 -2.481552	 -0.929443	  0.533704	 -1.197961	  1.602399	  1.066851	
 -2.490005	 -0.929480	  0.533704	 -1.197936	  1.602435	  1.074515	
 -2.498374	 -0.929467	  0.533691	 -1.197925	  1.602339	  1.082274	
 -2.506827	 -0.929455	  0.533679	 -1.197961	  1.602435	  1.090308	
 -2.515388	 -0.929431	  0.533691	 -1.197936	  1.602411	  1.098355	
 -2.523997	 -0.929431	  0.533728	 -1.197925	  1.602375	  1.106258	
 -2.532582	 -0.929443	  0.533691	 -1.197949	  1.602399	  1.114364	
 -2.541263	 -0.929431	  0.533716	 -1.197936	  1.602387	  1.122616	
 -2.550101	 -0.929431	  0.533691	 -1.197996	  1.602399	  1.130602	
 -2.558962	 -0.929443	  0.533691	 -1.197925	  1.602339	  1.138637	
 -2.567644	 -0.929455	  0.533691	 -1.197936	  1.602435	  1.146863	
 -2.576649	 -0.929431	  0.533704	 -1.197936	  1.602363	  1.155258	
 -2.585631	 -0.929419	  0.533704	 -1.197949	  1.602387	  1.163640	
 -2.594577	 -0.929455	  0.533679	 -1.197949	  1.602399	  1.171891	
 -2.603582	 -0.929455	  0.533716	 -1.197936	  1.602363	  1.180478	
 -2.612792	 -0.929407	  0.533691	 -1.197973	  1.602399	  1.188944	
 -2.622026	 -0.929431	  0.533668	 -1.197936	  1.602315	  1.197231	
 -2.631128	 -0.929431	  0.533704	 -1.197936	  1.602471	  1.205758	
 -2.640422	 -0.929443	  0.533691	 -1.197936	  1.602375	  1.214332	
 -2.649812	 -0.929455	  0.533716	 -1.197901	  1.602411	  1.223170	
 -2.659034	 -0.929419	  0.533704	 -1.197925	  1.602411	  1.231745	
 -2.668400	 -0.929395	  0.533716	 -1.197913	  1.602387	  1.240379	
 -2.677730	 -0.929431	  0.533704	 -1.197985	  1.602435	  1.249181	
 -2.687121	 -0.929455	  0.533679	 -1.197973	  1.602363	  1.257696	
 -2.696451	 -0.929431	  0.533704	 -1.197949	  1.602435	  1.266294	
 -2.705890	 -0.929455	  0.533716	 -1.197949	  1.602411	  1.275036	
 -2.715341	 -0.929419	  0.533704	 -1.197961	  1.602387	  1.284078	
 -2.724612	 -0.929455	  0.533704	 -1.197996	  1.602375	  1.292545	
 -2.734051	 -0.929419	  0.533740	 -1.197913	  1.602351	  1.301359	
 -2.743466	 -0.929419	  0.533704	 -1.197961	  1.602351	  1.310233	
 -2.752750	 -0.929431	  0.533716	 -1.197973	  1.602387	  1.318892	
 -2.762141	 -0.929431	  0.533716	 -1.197949	  1.602387	  1.327394	
 -2.771556	 -0.929455	  0.533691	 -1.197961	  1.602411	  1.336137	
 -2.780888	 -0.929395	  0.533679	 -1.197961	  1.602315	  1.344987	
 -2.790087	 -0.929443	  0.533728	 -1.197936	  1.602387	  1.353765	
 -2.799515	 -0.929443	  0.533716	 -1.197996	  1.602303	  1.362423	
 -2.808883	 -0.929455	  0.533691	 -1.197961	  1.602351	  1.371154	
 -2.818071	 -0.929419	  0.533691	 -1.197996	  1.602435	  1.379692	
 -2.827343	 -0.929443	  0.533740	 -1.197925	  1.602375	  1.388183	
 -2.836591	 -0.929467	  0.533691	 -1.197961	  1.602351	  1.396829	
 -2.845792	 -0.929431	  0.533679	 -1.198008	  1.602363	  1.405475	
 -2.855004	 -0.929419	  0.533751	 -1.197996	  1.602399	  1.414097	
 -2.864204	 -0.929419	  0.533740	 -1.198020	  1.602447	  1.422731	
 -2.873369	 -0.929419	  0.533668	 -1.198020	  1.602351	  1.431030	
 -2.882390	 -0.929467	  0.533656	 -1.198045	  1.602447	  1.439700	
 -2.891506	 -0.929407	  0.533704	 -1.198020	  1.602339	  1.447963	
 -2.900636	 -0.929443	  0.533728	 -1.198020	  1.602411	  1.456321	
 -2.909620	 -0.929395	  0.533679	 -1.198045	  1.602411	  1.464787	
 -2.918618	 -0.929419	  0.533751	 -1.197996	  1.602375	  1.473361	
 -2.927590	 -0.929431	  0.533716	 -1.198020	  1.602375	  1.481648	
 -2.936575	 -0.929407	  0.533716	 -1.198045	  1.602339	  1.489730	
 -2.945357	 -0.929443	  0.533728	 -1.198057	  1.602399	  1.498100	
 -2.954174	 -0.929431	  0.533704	 -1.198045	  1.602375	  1.506267	
 -2.963004	 -0.929480	  0.533716	 -1.198045	  1.602375	  1.514241	
 -2.971654	 -0.929443	  0.533668	 -1.198057	  1.602339	  1.522336	
 -2.980351	 -0.929443	  0.533716	 -1.198045	  1.602351	  1.530550	
 -2.989109	 -0.929431	  0.533716	 -1.198104	  1.602435	  1.538740	
 -2.997855	 -0.929431	  0.533679	 -1.198057	  1.602315	  1.546643	
 -3.006325	 -0.929443	  0.533704	 -1.198068	  1.602375	  1.554654	
 -3.014915	 -0.929419	  0.533716	 -1.198020	  1.602375	  1.562556	
 -3.023517	 -0.929419	  0.533704	 -1.198092	  1.602387	  1.570314	
 -3.032059	 -0.929443	  0.533668	 -1.198020	  1.602315	  1.577989	
 -3.040494	 -0.929419	  0.533691	 -1.198045	  1.602363	  1.585868	
 -3.048988	 -0.929467	  0.533728	 -1.198057	  1.602375	  1.593914	
 -3.057386	 -0.929431	  0.533704	 -1.198033	  1.602375	  1.601732	
 -3.065713	 -0.929419	  0.533691	 -1.198068	  1.602315	  1.609407	
 -3.074003	 -0.929431	  0.533704	 -1.198068	  1.602399	  1.617321	
 -3.082198	 -0.929443	  0.533691	 -1.198068	  1.602399	  1.624840	
 -3.090464	 -0.929443	  0.533716	 -1.198033	  1.602315	  1.632299	
 -3.098611	 -0.929467	  0.533668	 -1.198104	  1.602399	  1.639901	
 -3.106722	 -0.929443	  0.533728	 -1.198045	  1.602363	  1.647456	
 -3.114880	 -0.929455	  0.533691	 -1.198068	  1.602327	  1.655046	
 -3.122956	 -0.929455	  0.533716	 -1.198068	  1.602351	  1.662757	
 -3.130923	 -0.929431	  0.533704	 -1.198080	  1.602387	  1.670107	
 -3.138938	 -0.929443	  0.533691	 -1.198045	  1.602399	  1.677530	
 -3.146869	 -0.929443	  0.533716	 -1.198068	  1.602351	  1.684988	
 -3.154872	 -0.929443	  0.533691	 -1.198045	  1.602339	  1.692327	
 -3.162683	 -0.929431	  0.533728	 -1.198045	  1.602387	  1.699426	
 -3.170506	 -0.929431	  0.533716	 -1.198045	  1.602351	  1.706740	
 -3.178246	 -0.929455	  0.533668	 -1.198068	  1.602363	  1.714091	
 -3.186033	 -0.929431	  0.533668	 -1.198057	  1.602375	  1.721298	
 -3.193628	 -0.929431	  0.533704	 -1.198045	  1.602387	  1.728492	
 -3.201319	 -0.929467	  0.533716	 -1.198057	  1.602363	  1.735435	
 -3.208843	 -0.929431	  0.533704	 -1.198068	  1.602387	  1.742486	
 -3.216427	 -0.929455	  0.533716	 -1.198080	  1.602375	  1.749405	
 -3.223866	 -0.929443	  0.533704	 -1.198092	  1.602399	  1.756455	
 -3.231233	 -0.929455	  0.533668	 -1.198033	  1.602399	  1.763062	
 -3.238673	 -0.929431	  0.533716	 -1.198080	  1.602375	  1.769933	
 -3.245993	 -0.929443	  0.533716	 -1.198045	  1.602399	  1.776852	
 -3.253325	 -0.929443	  0.533716	 -1.198092	  1.602327	  1.783807	
 -3.260500	 -0.929455	  0.533716	 -1.198068	  1.602387	  1.790522	
 -3.267676	 -0.929443	  0.533668	 -1.198057	  1.602339	  1.797105	
 -3.274900	 -0.929443	  0.533716	 -1.198068	  1.602351	  1.803891	
 -3.282124	 -0.929455	  0.533679	 -1.198057	  1.602315	  1.810546	
 -3.289179	 -0.929455	  0.533691	 -1.198092	  1.602339	  1.817177	
 -3.296307	 -0.929455	  0.533704	 -1.198068	  1.602339	  1.823628	
 -3.303291	 -0.929419	  0.533679	 -1.198068	  1.602315	  1.830115	
 -3.310395	 -0.929419	  0.533679	 -1.198045	  1.602327	  1.836745	
 -3.317308	 -0.929455	  0.533691	 -1.198068	  1.602375	  1.843293	
 -3.324183	 -0.929431	  0.533704	 -1.198068	  1.602327	  1.849707	
 -3.331131	 -0.929443	  0.533728	 -1.198045	  1.602375	  1.856134	
 -3.337983	 -0.929431	  0.533728	 -1.198033	  1.602351	  1.862417	
 -3.344847	 -0.929455	  0.533704	 -1.198068	  1.602291	  1.868820	
 -3.351616	 -0.929443	  0.533704	 -1.198068	  1.602315	  1.875223	
 -3.358336	 -0.929395	  0.533679	 -1.198068	  1.602363	  1.881422	
 -3.365140	 -0.929419	  0.533691	 -1.198045	  1.602363	  1.887525	
 -3.370996	 -0.929431	  0.533704	 -1.198068	  1.602375	  1.893772	
 -3.378016	 -0.929431	  0.533691	 -1.198068	  1.602279	  1.900007	
 -3.384592	 -0.929407	  0.533716	 -1.198080	  1.602351	  1.906170	
 -3.391156	 -0.929467	  0.533679	 -1.198045	  1.602363	  1.912357	
 -3.397661	 -0.929455	  0.533668	 -1.198045	  1.602315	  1.918316	
 -3.404177	 -0.929431	  0.533668	 -1.198068	  1.602255	  1.924287	
 -3.410585	 -0.929419	  0.533679	 -1.198068	  1.602339	  1.930246	
 -3.416874	 -0.929419	  0.533679	 -1.198045	  1.602291	  1.936145	
 -3.423222	 -0.929431	  0.533668	 -1.198092	  1.602363	  1.942152	
 -3.429450	 -0.929419	  0.533668	 -1.198117	  1.602303	  1.947799	
 -3.435691	 -0.929443	  0.533716	 -1.198057	  1.602315	  1.953435	
 -3.441823	 -0.929455	  0.533691	 -1.198080	  1.602315	  1.959250	
 -3.447799	 -0.929455	  0.533716	 -1.198068	  1.602315	  1.964741	
 -3.453812	 -0.929431	  0.533704	 -1.198045	  1.602375	  1.970592	
 -3.459716	 -0.929419	  0.533704	 -1.198057	  1.602327	  1.976132	
 -3.465620	 -0.929443	  0.533704	 -1.198068	  1.602315	  1.981587	
 -3.471525	 -0.929455	  0.533691	 -1.198057	  1.602339	  1.986947	
 -3.477141	 -0.929407	  0.533716	 -1.198068	  1.602315	  1.992138	
 -3.482805	 -0.929407	  0.533716	 -1.198045	  1.602375	  1.997558	
 -3.488398	 -0.929383	  0.533716	 -1.198057	  1.602339	  2.002820	
 -3.493918	 -0.929443	  0.533704	 -1.198068	  1.602327	  2.007928	
 -3.499439	 -0.929455	  0.533679	 -1.198045	  1.602315	  2.012832	
 -3.504767	 -0.929395	  0.533691	 -1.198068	  1.602291	  2.017843	
 -3.510108	 -0.929467	  0.533716	 -1.198057	  1.602315	  2.022808	
 -3.515340	 -0.929371	  0.533679	 -1.198068	  1.602315	  2.027663	
 -3.520500	 -0.929395	  0.533704	 -1.198033	  1.602351	  2.032603	
 -3.525685	 -0.929395	  0.533679	 -1.198068	  1.602351	  2.037471	
 -3.530761	 -0.929359	  0.533716	 -1.198092	  1.602303	  2.042027	
 -3.535706	 -0.929347	  0.533728	 -1.198057	  1.602291	  2.046726	
 -3.540674	 -0.929311	  0.533716	 -1.198068	  1.602315	  2.051306	
 -3.545595	 -0.929263	  0.533728	 -1.198092	  1.602315	  2.055815	
 -3.550455	 -0.929275	  0.533704	 -1.198068	  1.602327	  2.060490	
 -3.555208	 -0.929287	  0.533691	 -1.198092	  1.602327	  2.064938	
 -3.559996	 -0.929347	  0.533691	 -1.198080	  1.602315	  2.069375	
 -3.564749	 -0.929311	  0.533691	 -1.198068	  1.602327	  2.073595	
 -3.569309	 -0.929359	  0.533668	 -1.198080	  1.602363	  2.077827	
 -3.573846	 -0.929311	  0.533679	 -1.198104	  1.602315	  2.081987	
 -3.578430	 -0.929323	  0.533691	 -1.198080	  1.602279	  2.086244	
 -3.582906	 -0.929311	  0.533679	 -1.198068	  1.602351	  2.090367	
 -3.587347	 -0.929311	  0.533716	 -1.198068	  1.602279	  2.094624	
 -3.591763	 -0.929335	  0.533704	 -1.198080	  1.602267	  2.098820	
 -3.596155	 -0.929323	  0.533679	 -1.198057	  1.602267	  2.102872	
 -3.600380	 -0.929311	  0.533704	 -1.198080	  1.602351	  2.106840	
 -3.604592	 -0.929335	  0.533668	 -1.198080	  1.602363	  2.110797	
 -3.608889	 -0.929323	  0.533716	 -1.198068	  1.602303	  2.114729	
 -3.613029	 -0.929347	  0.533679	 -1.198057	  1.602303	  2.118602	
 -3.617134	 -0.929299	  0.533716	 -1.198128	  1.602291	  2.122390	
 -3.621226	 -0.929323	  0.533716	 -1.198033	  1.602291	  2.126179	
 -3.625378	 -0.929311	  0.533679	 -1.198080	  1.602303	  2.129919	
 -3.629315	 -0.929335	  0.533668	 -1.198117	  1.602303	  2.133672	
 -3.633335	 -0.929323	  0.533728	 -1.198068	  1.602231	  2.137281	
 -3.637260	 -0.929311	  0.533691	 -1.198080	  1.602291	  2.140913	
 -3.641148	 -0.929311	  0.533704	 -1.198068	  1.602351	  2.144498	
 -3.645025	 -0.929323	  0.533691	 -1.198057	  1.602303	  2.148118	
 -3.648769	 -0.929323	  0.533679	 -1.198080	  1.602315	  2.151727	
 -3.652538	 -0.929323	  0.533679	 -1.198080	  1.602255	  2.155252	
 -3.656390	 -0.929287	  0.533704	 -1.198092	  1.602279	  2.158788	
 -3.659978	 -0.929311	  0.533716	 -1.198068	  1.602255	  2.162253	
 -3.663711	 -0.929311	  0.533691	 -1.198068	  1.602255	  2.165682	
 -3.667299	 -0.929287	  0.533691	 -1.198080	  1.602303	  2.168967	
 -3.670960	 -0.929335	  0.533691	 -1.198080	  1.602315	  2.172323	
 -3.674548	 -0.929323	  0.533668	 -1.198068	  1.602315	  2.175620	
 -3.678052	 -0.929323	  0.533691	 -1.198092	  1.602267	  2.178845	
 -3.681509	 -0.929347	  0.533668	 -1.198092	  1.602279	  2.182166	
 -3.685037	 -0.929335	  0.533679	 -1.198068	  1.602315	  2.185343	
 -3.688493	 -0.929323	  0.533679	 -1.198057	  1.602279	  2.188472	
 -3.691866	 -0.929359	  0.533679	 -1.198080	  1.602303	  2.191649	
 -3.695190	 -0.929299	  0.533691	 -1.198068	  1.602315	  2.194766	
 -3.698479	 -0.929335	  0.533704	 -1.198068	  1.602303	  2.197667	
 -3.701707	 -0.929323	  0.533691	 -1.198104	  1.602291	  2.200628	
 -3.704851	 -0.929359	  0.533668	 -1.198140	  1.602315	  2.203601	
 -3.708043	 -0.929347	  0.533679	 -1.198080	  1.602279	  2.206527	
 -3.711152	 -0.929347	  0.533679	 -1.198080	  1.602267	  2.209512	
 -3.714140	 -0.929347	  0.533679	 -1.198068	  1.602291	  2.212425	
 -3.717249	 -0.929347	  0.533691	 -1.198104	  1.602315	  2.215254	
 -3.720309	 -0.929311	  0.533704	 -1.198068	  1.602255	  2.218107	
 -3.723309	 -0.929335	  0.533704	 -1.198080	  1.602327	  2.220973	
 -3.726202	 -0.929311	  0.533668	 -1.198092	  1.602339	  2.223730	
 -3.729118	 -0.929335	  0.533679	 -1.198068	  1.602291	  2.226439	
 -3.731963	 -0.929335	  0.533704	 -1.198068	  1.602303	  2.229028	
 -3.734747	 -0.929347	  0.533716	 -1.198104	  1.602339	  2.231606	
 -3.737471	 -0.929311	  0.533691	 -1.198068	  1.602267	  2.234136	
 -3.740099	 -0.929347	  0.533704	 -1.198104	  1.602255	  2.236569	
 -3.742728	 -0.929347	  0.533668	 -1.198068	  1.602315	  2.239063	
 -3.745404	 -0.929335	  0.533668	 -1.198092	  1.602255	  2.241508	
 -3.747996	 -0.929335	  0.533668	 -1.198080	  1.602279	  2.243942	
 -3.750685	 -0.929323	  0.533716	 -1.198080	  1.602279	  2.246256	
 -3.753229	 -0.929323	  0.533704	 -1.198068	  1.602303	  2.248605	
 -3.755713	 -0.929335	  0.533679	 -1.198057	  1.602279	  2.250919	
 -3.758113	 -0.929347	  0.533704	 -1.198068	  1.602339	  2.253185	
 -3.760429	 -0.929347	  0.533716	 -1.198068	  1.602339	  2.255402	
 -3.762710	 -0.929311	  0.533668	 -1.198080	  1.602315	  2.257549	
 -3.764882	 -0.929299	  0.533716	 -1.198104	  1.602303	  2.259658	
 -3.767042	 -0.929335	  0.533679	 -1.198057	  1.602255	  2.261612	
 -3.769154	 -0.929347	  0.533679	 -1.198068	  1.602255	  2.263626	
 -3.771291	 -0.929335	  0.533679	 -1.198080	  1.602279	  2.265640	
 -3.773391	 -0.929347	  0.533716	 -1.198068	  1.602255	  2.267546	
 -3.775431	 -0.929335	  0.533679	 -1.198104	  1.602303	  2.269440	
 -3.777447	 -0.929311	  0.533704	 -1.198057	  1.602315	  2.271322	
 -3.779523	 -0.929359	  0.533691	 -1.198080	  1.602279	  2.273121	
 -3.781468	 -0.929335	  0.533679	 -1.198068	  1.602279	  2.274847	
 -3.783304	 -0.929335	  0.533716	 -1.198080	  1.602291	  2.276597	
 -3.785116	 -0.929335	  0.533691	 -1.198068	  1.602255	  2.278203	
 -3.786808	 -0.929371	  0.533679	 -1.198092	  1.602315	  2.279858	
 -3.788249	 -0.929359	  0.533704	 -1.198080	  1.602291	  2.281416	
 -3.789881	 -0.929323	  0.533691	 -1.198104	  1.602291	  2.282963	
 -3.791393	 -0.929311	  0.533691	 -1.198068	  1.602279	  2.284389	
 -3.792893	 -0.929347	  0.533679	 -1.198117	  1.602291	  2.285876	
 -3.794357	 -0.929359	  0.533691	 -1.198080	  1.602291	  2.287302	
 -3.795797	 -0.929347	  0.533691	 -1.198057	  1.602267	  2.288573	
 -3.797166	 -0.929347	  0.533716	 -1.198104	  1.602303	  2.289891	
 -3.798486	 -0.929347	  0.533679	 -1.198068	  1.602267	  2.291043	
 -3.799722	 -0.929335	  0.533704	 -1.198092	  1.602315	  2.292181	
 -3.801006	 -0.929323	  0.533716	 -1.198068	  1.602315	  2.293308	
 -3.802170	 -0.929347	  0.533704	 -1.198080	  1.602303	  2.294375	
 -3.803250	 -0.929311	  0.533704	 -1.198117	  1.602291	  2.295346	
 -3.804270	 -0.929335	  0.533704	 -1.198092	  1.602315	  2.296341	
 -3.805218	 -0.929335	  0.533668	 -1.198057	  1.602279	  2.297240	
 -3.806191	 -0.929335	  0.533679	 -1.198057	  1.602279	  2.298079	
 -3.807090	 -0.929323	  0.533668	 -1.198104	  1.602279	  2.298943	
 -3.807943	 -0.929347	  0.533716	 -1.198068	  1.602279	  2.299721	
 -3.808795	 -0.929347	  0.533679	 -1.198092	  1.602303	  2.300489	
 -3.809647	 -0.929371	  0.533704	 -1.198033	  1.602303	  2.301208	
 -3.810391	 -0.929371	  0.533691	 -1.198080	  1.602255	  2.301831	
 -3.811111	 -0.929323	  0.533679	 -1.198080	  1.602303	  2.302526	
 -3.811795	 -0.929347	  0.533668	 -1.198068	  1.602315	  2.303174	
 -3.812443	 -0.929359	  0.533679	 -1.198045	  1.602303	  2.303773	
 -3.812983	 -0.929359	  0.533691	 -1.198080	  1.602291	  2.304265	
 -3.813463	 -0.929335	  0.533668	 -1.198068	  1.602279	  2.304804	
 -3.814015	 -0.929347	  0.533679	 -1.198080	  1.602291	  2.305272	
 -3.814448	 -0.929347	  0.533668	 -1.198092	  1.602279	  2.305752	
 -3.814879	 -0.929347	  0.533691	 -1.198092	  1.602303	  2.306171	
 -3.815275	 -0.929323	  0.533704	 -1.198057	  1.602303	  2.306591	
 -3.815672	 -0.929335	  0.533656	 -1.198092	  1.602315	  2.306998	
 -3.816055	 -0.929323	  0.533691	 -1.198080	  1.602291	  2.307370	
 -3.816464	 -0.929323	  0.533679	 -1.198092	  1.602291	  2.307681	
 -3.816764	 -0.929371	  0.533679	 -1.198068	  1.602291	  2.307957	
 -3.817076	 -0.929347	  0.533679	 -1.198068	  1.602255	  2.308269	
 -3.817460	 -0.929347	  0.533691	 -1.198117	  1.602279	  2.308604	
 -3.817760	 -0.929347	  0.533704	 -1.198104	  1.602315	  2.308832	
 -3.817976	 -0.929335	  0.533668	 -1.198092	  1.602303	  2.309060	
 -3.818288	 -0.929335	  0.533691	 -1.198057	  1.602291	  2.309264	
 -3.818468	 -0.929335	  0.533728	 -1.198117	  1.602279	  2.309528	
 -3.818696	 -0.929335	  0.533716	 -1.198080	  1.602303	  2.309719	
 -3.818948	 -0.929347	  0.533691	 -1.198104	  1.602291	  2.309947	
 -3.819116	 -0.929335	  0.533704	 -1.198068	  1.602255	  2.310163	
 -3.819344	 -0.929347	  0.533679	 -1.198080	  1.602279	  2.310331	
 -3.819524	 -0.929359	  0.533691	 -1.198068	  1.602291	  2.310534	
 -3.819656	 -0.929311	  0.533679	 -1.198080	  1.602279	  2.310558	
 -3.819824	 -0.929311	  0.533668	 -1.198068	  1.602303	  2.310726	
 -3.820004	 -0.929323	  0.533704	 -1.198057	  1.602279	  2.310858	
 -3.820124	 -0.929347	  0.533679	 -1.198068	  1.602315	  2.310942	
 -3.820292	 -0.929347	  0.533668	 -1.198080	  1.602279	  2.311062	
 -3.820388	 -0.929371	  0.533679	 -1.198068	  1.602303	  2.311134	
 -3.820484	 -0.929323	  0.533691	 -1.198068	  1.602303	  2.311302	
 -3.820628	 -0.929347	  0.533704	 -1.198104	  1.602315	  2.311254	
 -3.820712	 -0.929347	  0.533704	 -1.198092	  1.602255	  2.311398	
 -3.820808	 -0.929359	  0.533691	 -1.198080	  1.602267	  2.311493	
 -3.820844	 -0.929371	  0.533679	 -1.198045	  1.602255	  2.311529	
 -3.820964	 -0.929359	  0.533716	 -1.198057	  1.602291	  2.311661	
 -3.821036	 -0.929323	  0.533704	 -1.198068	  1.602315	  2.311674	
 -3.821036	 -0.929359	  0.533716	 -1.198068	  1.602303	  2.311793	
 -3.821192	 -0.929359	  0.533704	 -1.198068	  1.602279	  2.311841	
 -3.821252	 -0.929359	  0.533691	 -1.198080	  1.602291	  2.311865	
 -3.821264	 -0.929359	  0.533704	 -1.198068	  1.602315	  2.311961	
 -3.821300	 -0.929359	  0.533679	 -1.198092	  1.602267	  2.311937	
 -3.821360	 -0.929347	  0.533691	 -1.198057	  1.602279	  2.312045	
 -3.821336	 -0.929359	  0.533691	 -1.198092	  1.602303	  2.312093	
 -3.821456	 -0.929323	  0.533704	 -1.198080	  1.602255	  2.312105	
 -3.821444	 -0.929323	  0.533679	 -1.198068	  1.602279	  2.312213	
 -3.821456	 -0.929335	  0.533679	 -1.198092	  1.602255	  2.312081	
 -3.821468	 -0.929347	  0.533691	 -1.198104	  1.602303	  2.312261	
 -3.821540	 -0.929347	  0.533679	 -1.198057	  1.602255	  2.312225	
 -3.821516	 -0.929335	  0.533679	 -1.198117	  1.602315	  2.312285	
 -3.821564	 -0.929323	  0.533704	 -1.198068	  1.602267	  2.312381	
 -3.821684	 -0.929335	  0.533668	 -1.198068	  1.602255	  2.312309	
 -3.821648	 -0.929323	  0.533679	 -1.198057	  1.602291	  2.312452	
 -3.821660	 -0.929311	  0.533691	 -1.198080	  1.602279	  2.312357	
 -3.821720	 -0.929371	  0.533679	 -1.198068	  1.602279	  2.312464	
 -3.821756	 -0.929359	  0.533716	 -1.198104	  1.602279	  2.312548	
 -3.821720	 -0.929347	  0.533704	 -1.198080	  1.602279	  2.312464	
 -3.821732	 -0.929335	  0.533679	 -1.198068	  1.602303	  2.312656	
 -3.821768	 -0.929323	  0.533704	 -1.198080	  1.602255	  2.312548	
 -3.821780	 -0.929323	  0.533691	 -1.198104	  1.602315	  2.312572	
 -3.821804	 -0.929347	  0.533704	 -1.198092	  1.602279	  2.312680	
 -3.821816	 -0.929347	  0.533668	 -1.198117	  1.602279	  2.312548	
 -3.821840	 -0.929335	  0.533679	 -1.198080	  1.602291	  2.312800	
 -3.821900	 -0.929359	  0.533704	 -1.198104	  1.602255	  2.312704	
 -3.821888	 -0.929371	  0.533704	 -1.198080	  1.602279	  2.312752	
 -3.821900	 -0.929335	  0.533679	 -1.198068	  1.602303	  2.312860	
 -3.821936	 -0.929335	  0.533668	 -1.198057	  1.602231	  2.312728	
 -3.821960	 -0.929347	  0.533668	 -1.198092	  1.602327	  2.312884	
 -3.821936	 -0.929311	  0.533679	 -1.198068	  1.602255	  2.312812	
 -3.821960	 -0.929323	  0.533668	 -1.198104	  1.602291	  2.312800	
 -3.821996	 -0.929335	  0.533679	 -1.198092	  1.602279	  2.312920	
 -3.821996	 -0.929335	  0.533691	 -1.198080	  1.602279	  2.312824	
 -3.822020	 -0.929323	  0.533679	 -1.198080	  1.602255	  2.312884	
 -3.822044	 -0.929347	  0.533704	 -1.198068	  1.602315	  2.312884	
 -3.822044	 -0.929371	  0.533668	 -1.198068	  1.602267	  2.312752	
 -3.822032	 -0.929347	  0.533668	 -1.198057	  1.602267	  2.312896	
 -3.822044	 -0.929347	  0.533679	 -1.198068	  1.602279	  2.312872	
 -3.822080	 -0.929347	  0.533704	 -1.198080	  1.602267	  2.312872	
 -3.822080	 -0.929335	  0.533668	 -1.198068	  1.602279	  2.312968	
 -3.822056	 -0.929323	  0.533668	 -1.198057	  1.602243	  2.312872	
 -3.822068	 -0.929347	  0.533668	 -1.198104	  1.602255	  2.312992	
 -3.822116	 -0.929335	  0.533679	 -1.198068	  1.602303	  2.312980	
 -3.822056	 -0.929347	  0.533679	 -1.198068	  1.602267	  2.312908	
 -3.822056	 -0.929323	  0.533668	 -1.198068	  1.602291	  2.313052	
 -3.822080	 -0.929347	  0.533679	 -1.198080	  1.602267	  2.312872	
 -3.822092	 -0.929335	  0.533668	 -1.198057	  1.602291	  2.312944	
 -3.822116	 -0.929359	  0.533679	 -1.198104	  1.602279	  2.312944	
 -3.822068	 -0.929335	  0.533728	 -1.198104	  1.602291	  2.312896	
 -3.822128	 -0.929323	  0.533704	 -1.198080	  1.602267	  2.312932	
 -3.822104	 -0.929347	  0.533716	 -1.198068	  1.602279	  2.312884	
 -3.822140	 -0.929347	  0.533704	 -1.198068	  1.602291	  2.312908	
 -3.822092	 -0.929347	  0.533704	 -1.198092	  1.602291	  2.312908	
 -3.822128	 -0.929335	  0.533704	 -1.198080	  1.602291	  2.312872	
 -3.822128	 -0.929347	  0.533668	 -1.198068	  1.602279	  2.312872	
 -3.822080	 -0.929311	  0.533668	 -1.198092	  1.602291	  2.312872	
 -3.822128	 -0.929335	  0.533704	 -1.198104	  1.602255	  2.312908	
 -3.822104	 -0.929359	  0.533691	 -1.198080	  1.602291	  2.312920	
 -3.822116	 -0.929347	  0.533691	 -1.198092	  1.602279	  2.312920	
 -3.822092	 -0.929311	  0.533668	 -1.198068	  1.602279	  2.312896	
 -3.822104	 -0.929335	  0.533679	 -1.198080	  1.602279	  2.312920	
 -3.822104	 -0.929347	  0.533679	 -1.198033	  1.602255	  2.312920	
 -3.822116	 -0.929347	  0.533728	 -1.198057	  1.602303	  2.312920	
 -3.822116	 -0.929347	  0.533716	 -1.198080	  1.602279	  2.312908	
 -3.822116	 -0.929347	  0.533679	 -1.198092	  1.602267	  2.312896	
 -3.822092	 -0.929359	  0.533691	 -1.198092	  1.602279	  2.312932	
 -3.822152	 -0.929359	  0.533691	 -1.198068	  1.602291	  2.312920	
 -3.822176	 -0.929335	  0.533704	 -1.198080	  1.602291	  2.313052	
 -3.822248	 -0.929383	  0.533716	 -1.198080	  1.602303	  2.313028	
 -3.822272	 -0.929335	  0.533716	 -1.198045	  1.602255	  2.313040	
 -3.822368	 -0.929371	  0.533691	 -1.198068	  1.602279	  2.313136	
 -3.822464	 -0.929335	  0.533679	 -1.198068	  1.602303	  2.313124	
 -3.822584	 -0.929335	  0.533679	 -1.198080	  1.602267	  2.313267	
 -3.822704	 -0.929347	  0.533691	 -1.198104	  1.602291	  2.313400	
 -3.822884	 -0.929335	  0.533668	 -1.198117	  1.602267	  2.313531	
 -3.823064	 -0.929359	  0.533668	 -1.198057	  1.602279	  2.313675	
 -3.823292	 -0.929359	  0.533704	 -1.198092	  1.602303	  2.313843	
 -3.823424	 -0.929335	  0.533679	 -1.198057	  1.602279	  2.314023	
 -3.823700	 -0.929335	  0.533679	 -1.198057	  1.602303	  2.314251	
 -3.823904	 -0.929323	  0.533716	 -1.198080	  1.602279	  2.314491	
 -3.824204	 -0.929383	  0.533679	 -1.198080	  1.602315	  2.314790	
 -3.824480	 -0.929347	  0.533716	 -1.198057	  1.602231	  2.315078	
 -3.824864	 -0.929323	  0.533679	 -1.198092	  1.602291	  2.315485	
 -3.825213	 -0.929371	  0.533679	 -1.198068	  1.602267	  2.315869	
 -3.825645	 -0.929311	  0.533704	 -1.198068	  1.602279	  2.316324	
 -3.826041	 -0.929335	  0.533679	 -1.198068	  1.602267	  2.316768	
 -3.826545	 -0.929371	  0.533656	 -1.198080	  1.602291	  2.317308	
 -3.827085	 -0.929335	  0.533716	 -1.198104	  1.602279	  2.317811	
 -3.827649	 -0.929359	  0.533716	 -1.198080	  1.602279	  2.318422	
 -3.828237	 -0.929383	  0.533691	 -1.198092	  1.602255	  2.319022	
 -3.828885	 -0.929347	  0.533679	 -1.198092	  1.602279	  2.319669	
 -3.829545	 -0.929347	  0.533679	 -1.198068	  1.602267	  2.320340	
 -3.830337	 -0.929347	  0.533691	 -1.198104	  1.602255	  2.321119	
 -3.831129	 -0.929347	  0.533691	 -1.198068	  1.602255	  2.321887	
 -3.831969	 -0.929407	  0.533691	 -1.198104	  1.602279	  2.322714	
 -3.832857	 -0.929371	  0.533679	 -1.198140	  1.602243	  2.323565	
 -3.833806	 -0.929335	  0.533679	 -1.198104	  1.602255	  2.324488	
 -3.834705	 -0.929347	  0.533668	 -1.198104	  1.602255	  2.325471	
 -3.835702	 -0.929371	  0.533679	 -1.198080	  1.602255	  2.326454	
 -3.836782	 -0.929371	  0.533668	 -1.198080	  1.602291	  2.327533	
 -3.837849	 -0.929383	  0.533691	 -1.198104	  1.602255	  2.328732	
 -3.839014	 -0.929347	  0.533716	 -1.198092	  1.602255	  2.329834	
 -3.840142	 -0.929347	  0.533704	 -1.198080	  1.602255	  2.330997	
 -3.841426	 -0.929335	  0.533704	 -1.198068	  1.602243	  2.332292	
 -3.842710	 -0.929335	  0.533691	 -1.198092	  1.602231	  2.333659	
 -3.844079	 -0.929335	  0.533668	 -1.198117	  1.602255	  2.335001	
 -3.845447	 -0.929371	  0.533704	 -1.198117	  1.602279	  2.336344	
 -3.846899	 -0.929371	  0.533679	 -1.198092	  1.602279	  2.337818	
 -3.848423	 -0.929311	  0.533691	 -1.198104	  1.602255	  2.339293	
 -3.849887	 -0.929347	  0.533691	 -1.198080	  1.602291	  2.340803	
 -3.851399	 -0.929383	  0.533691	 -1.198068	  1.602279	  2.342361	
 -3.853019	 -0.929311	  0.533679	 -1.198104	  1.602279	  2.344016	
 -3.854555	 -0.929347	  0.533704	 -1.198080	  1.602303	  2.345694	
 -3.856200	 -0.929383	  0.533704	 -1.198080	  1.602279	  2.347432	
 -3.857928	 -0.929347	  0.533679	 -1.198068	  1.602255	  2.349194	
 -3.859728	 -0.929347	  0.533691	 -1.198104	  1.602231	  2.351016	
 -3.861540	 -0.929371	  0.533668	 -1.198080	  1.602231	  2.352874	
 -3.863484	 -0.929299	  0.533691	 -1.198068	  1.602255	  2.354673	
 -3.865369	 -0.929359	  0.533704	 -1.198092	  1.602255	  2.356650	
 -3.867409	 -0.929359	  0.533716	 -1.198092	  1.602279	  2.358616	
 -3.869473	 -0.929347	  0.533704	 -1.198057	  1.602267	  2.360666	
 -3.871609	 -0.929359	  0.533716	 -1.198117	  1.602255	  2.362656	
 -3.873805	 -0.929359	  0.533704	 -1.198092	  1.602279	  2.364814	
 -3.876014	 -0.929347	  0.533679	 -1.198128	  1.602267	  2.367043	
 -3.878198	 -0.929383	  0.533691	 -1.198020	  1.602303	  2.369261	
 -3.880442	 -0.929395	  0.533691	 -1.198104	  1.602255	  2.371515	
 -3.882638	 -0.929335	  0.533704	 -1.198068	  1.602207	  2.373780	
 -3.884966	 -0.929323	  0.533704	 -1.198117	  1.602267	  2.376214	
 -3.887319	 -0.929347	  0.533691	 -1.198117	  1.602279	  2.378599	
 -3.889683	 -0.929347	  0.533679	 -1.198092	  1.602231	  2.381032	
 -3.892083	 -0.929371	  0.533668	 -1.198117	  1.602279	  2.383502	
 -3.894615	 -0.929371	  0.533679	 -1.198092	  1.602231	  2.385947	
 -3.897123	 -0.929347	  0.533668	 -1.198104	  1.602279	  2.388548	
 -3.899740	 -0.929347	  0.533691	 -1.198068	  1.602231	  2.391113	
 -3.902368	 -0.929383	  0.533679	 -1.198092	  1.602255	  2.393739	
 -3.905140	 -0.929359	  0.533704	 -1.198080	  1.602291	  2.396520	
 -3.907913	 -0.929347	  0.533668	 -1.198104	  1.602255	  2.399277	
 -3.910721	 -0.929347	  0.533679	 -1.198057	  1.602231	  2.401998	
 -3.913505	 -0.929359	  0.533691	 -1.198092	  1.602303	  2.404850	
 -3.916313	 -0.929347	  0.533679	 -1.198080	  1.602267	  2.407835	
 -3.919121	 -0.929335	  0.533704	 -1.198104	  1.602291	  2.410784	
 -3.921966	 -0.929347	  0.533704	 -1.198117	  1.602267	  2.413745	
 -3.924978	 -0.929311	  0.533691	 -1.198104	  1.602303	  2.416717	
 -3.927930	 -0.929383	  0.533679	 -1.198068	  1.602267	  2.419666	
 -3.930510	 -0.929347	  0.533704	 -1.198117	  1.602267	  2.422687	
 -3.933799	 -0.929347	  0.533679	 -1.198092	  1.602279	  2.425660	
 -3.936991	 -0.929359	  0.533679	 -1.198092	  1.602219	  2.428896	
 -3.940147	 -0.929347	  0.533704	 -1.198128	  1.602255	  2.432049	
 -3.943339	 -0.929371	  0.533716	 -1.198117	  1.602267	  2.435237	
 -3.946592	 -0.929347	  0.533728	 -1.198104	  1.602255	  2.438521	
 -3.949868	 -0.929359	  0.533716	 -1.198117	  1.602303	  2.441770	
 -3.953108	 -0.929371	  0.533679	 -1.198117	  1.602279	  2.445114	
 -3.956384	 -0.929371	  0.533668	 -1.198140	  1.602243	  2.448447	
 -3.959696	 -0.929359	  0.533691	 -1.198080	  1.602255	  2.451826	
 -3.963021	 -0.929395	  0.533691	 -1.198068	  1.602279	  2.455207	
 -3.966441	 -0.929371	  0.533679	 -1.198104	  1.602255	  2.458683	
 -3.969970	 -0.929347	  0.533679	 -1.198092	  1.602183	  2.462243	
 -3.973497	 -0.929347	  0.533679	 -1.198045	  1.602207	  2.465719	
 -3.977002	 -0.929347	  0.533668	 -1.198104	  1.602267	  2.469303	
 -3.980566	 -0.929359	  0.533704	 -1.198080	  1.602291	  2.472911	
 -3.984190	 -0.929335	  0.533679	 -1.198104	  1.602243	  2.476555	
 -3.987886	 -0.929347	  0.533679	 -1.198092	  1.602255	  2.480199	
 -3.991558	 -0.929371	  0.533704	 -1.198164	  1.602315	  2.483830	
 -3.995171	 -0.929347	  0.533691	 -1.198080	  1.602267	  2.487522	
 -3.998927	 -0.929371	  0.533679	 -1.198104	  1.602207	  2.491310	
 -4.002659	 -0.929335	  0.533679	 -1.198080	  1.602267	  2.495146	
 -4.006452	 -0.929359	  0.533679	 -1.198080	  1.602243	  2.498957	
 -4.010244	 -0.929359	  0.533679	 -1.198092	  1.602231	  2.502841	
 -4.014096	 -0.929335	  0.533691	 -1.198117	  1.602255	  2.506724	
 -4.017972	 -0.929347	  0.533691	 -1.198104	  1.602255	  2.510620	
 -4.021896	 -0.929347	  0.533704	 -1.198080	  1.602279	  2.514491	
 -4.025904	 -0.929371	  0.533691	 -1.198117	  1.602279	  2.518518	
 -4.029985	 -0.929371	  0.533716	 -1.198080	  1.602231	  2.522582	
 -4.034101	 -0.929347	  0.533656	 -1.198092	  1.602267	  2.526800	
 -4.038193	 -0.929347	  0.533691	 -1.198080	  1.602267	  2.530960	
 -4.042345	 -0.929347	  0.533728	 -1.198080	  1.602255	  2.535215	
 -4.046605	 -0.929347	  0.533716	 -1.198068	  1.602267	  2.539566	
 -4.050889	 -0.929359	  0.533716	 -1.198104	  1.602243	  2.543797	
 -4.055234	 -0.929383	  0.533704	 -1.198092	  1.602279	  2.548111	
 -4.059674	 -0.929371	  0.533656	 -1.198080	  1.602279	  2.552558	
 -4.064114	 -0.929359	  0.533668	 -1.198104	  1.602195	  2.557005	
 -4.068734	 -0.929359	  0.533704	 -1.198092	  1.602231	  2.561584	
 -4.073246	 -0.929359	  0.533668	 -1.198068	  1.602207	  2.566294	
 -4.077902	 -0.929335	  0.533716	 -1.198104	  1.602267	  2.571029	
 -4.082643	 -0.929359	  0.533716	 -1.198117	  1.602303	  2.575703	
 -4.087418	 -0.929359	  0.533679	 -1.198117	  1.602219	  2.580545	
 -4.092315	 -0.929347	  0.533691	 -1.198092	  1.602291	  2.585435	
 -4.097330	 -0.929383	  0.533668	 -1.198140	  1.602255	  2.590505	
 -4.102299	 -0.929347	  0.533691	 -1.198068	  1.602255	  2.595551	
 -4.107242	 -0.929359	  0.533704	 -1.198104	  1.602231	  2.600705	
 -4.112414	 -0.929335	  0.533704	 -1.198080	  1.602231	  2.605895	
 -4.117647	 -0.929347	  0.533691	 -1.198104	  1.602267	  2.611072	
 -4.122951	 -0.929347	  0.533704	 -1.198117	  1.602243	  2.616405	
 -4.128375	 -0.929359	  0.533668	 -1.198104	  1.602231	  2.621799	
 -4.133678	 -0.929347	  0.533679	 -1.198080	  1.602243	  2.627204	
 -4.139114	 -0.929383	  0.533691	 -1.198092	  1.602219	  2.632753	
 -4.144658	 -0.929347	  0.533716	 -1.198057	  1.602231	  2.638314	
 -4.150358	 -0.929335	  0.533704	 -1.198092	  1.602255	  2.643899	
 -4.156058	 -0.929359	  0.533716	 -1.198104	  1.602231	  2.649749	
 -4.161794	 -0.929371	  0.533668	 -1.198092	  1.602255	  2.655573	
 -4.167542	 -0.929347	  0.533728	 -1.198080	  1.602255	  2.661397	
 -4.173398	 -0.929359	  0.533716	 -1.198117	  1.602267	  2.667414	
 -4.179254	 -0.929347	  0.533679	 -1.198104	  1.602279	  2.673239	
 -4.185302	 -0.929359	  0.533704	 -1.198104	  1.602267	  2.679231	
 -4.191481	 -0.929359	  0.533704	 -1.198104	  1.602243	  2.685331	
 -4.197517	 -0.929323	  0.533656	 -1.198104	  1.602243	  2.691372	
 -4.203613	 -0.929323	  0.533679	 -1.198117	  1.602231	  2.697604	
 -4.209732	 -0.929335	  0.533704	 -1.198128	  1.602255	  2.703764	
 -4.216056	 -0.929347	  0.533679	 -1.198104	  1.602267	  2.709960	
 -4.222452	 -0.929359	  0.533691	 -1.198104	  1.602279	  2.716372	
 -4.228643	 -0.929323	  0.533691	 -1.198068	  1.602327	  2.722615	
 -4.234822	 -0.929347	  0.533668	 -1.198092	  1.602243	  2.728967	
 -4.241158	 -0.929335	  0.533691	 -1.198104	  1.602255	  2.735259	
 -4.247601	 -0.929347	  0.533716	 -1.198080	  1.602243	  2.741671	
 -4.254129	 -0.929323	  0.533656	 -1.198080	  1.602231	  2.748190	
 -4.260512	 -0.929359	  0.533691	 -1.198104	  1.602243	  2.754673	
 -4.266944	 -0.929371	  0.533679	 -1.198117	  1.602243	  2.761301	
 -4.273567	 -0.929335	  0.533679	 -1.198080	  1.602291	  2.767844	
 -4.280262	 -0.929371	  0.533691	 -1.198117	  1.602255	  2.774543	
 -4.287018	 -0.929347	  0.533691	 -1.198117	  1.602267	  2.781314	
 -4.293581	 -0.929347	  0.533679	 -1.198117	  1.602267	  2.788169	
 -4.300324	 -0.929335	  0.533704	 -1.198092	  1.602303	  2.794940	
 -4.307163	 -0.929359	  0.533704	 -1.198104	  1.602267	  2.801687	
 -4.314087	 -0.929347	  0.533668	 -1.198080	  1.602267	  2.808565	
 -4.320997	 -0.929347	  0.533679	 -1.198152	  1.602183	  2.815444	
 -4.327836	 -0.929347	  0.533679	 -1.198092	  1.602255	  2.822478	
 -4.334747	 -0.929347	  0.533668	 -1.198117	  1.602279	  2.829417	
 -4.341886	 -0.929347	  0.533679	 -1.198117	  1.602231	  2.836643	
 -4.349025	 -0.929311	  0.533704	 -1.198068	  1.602255	  2.843833	
 -4.356068	 -0.929299	  0.533704	 -1.198092	  1.602267	  2.851191	
 -4.363231	 -0.929347	  0.533691	 -1.198092	  1.602315	  2.858381	
 -4.370501	 -0.929359	  0.533691	 -1.198045	  1.602303	  2.865523	
 -4.377904	 -0.929323	  0.533668	 -1.198068	  1.602243	  2.872797	
 -4.385199	 -0.929347	  0.533704	 -1.198057	  1.602279	  2.880275	
 -4.392493	 -0.929311	  0.533704	 -1.198057	  1.602267	  2.887740	
 -4.399956	 -0.929335	  0.533668	 -1.198057	  1.602267	  2.895217	
 -4.407514	 -0.929347	  0.533728	 -1.198068	  1.602279	  2.902767	
 -4.415001	 -0.929311	  0.533656	 -1.198140	  1.602231	  2.910448	
 -4.422535	 -0.929335	  0.533716	 -1.198045	  1.602267	  2.918093	
 -4.430177	 -0.929347	  0.533691	 -1.198045	  1.602279	  2.925810	
 -4.437903	 -0.929323	  0.533679	 -1.198068	  1.602279	  2.933515	
 -4.445677	 -0.929335	  0.533644	 -1.198033	  1.602231	  2.941052	
 -4.453224	 -0.929335	  0.533679	 -1.198068	  1.602267	  2.948865	
 -4.460998	 -0.929347	  0.533704	 -1.198068	  1.602303	  2.956677	
 -4.468891	 -0.929335	  0.533691	 -1.198068	  1.602255	  2.964670	
 -4.476785	 -0.929347	  0.533679	 -1.198057	  1.602219	  2.972554	
 -4.484487	 -0.929347	  0.533704	 -1.198045	  1.602279	  2.980534	
 -4.492345	 -0.929335	  0.533716	 -1.198068	  1.602315	  2.988359	
 -4.500322	 -0.929359	  0.533668	 -1.198033	  1.602231	  2.996399	
 -4.508384	 -0.929335	  0.533668	 -1.198057	  1.602207	  3.004439	
 -4.516326	 -0.929323	  0.533668	 -1.198020	  1.602279	  3.012527	
 -4.524447	 -0.929347	  0.533704	 -1.198033	  1.602279	  3.020735	
 -4.532712	 -0.929335	  0.533679	 -1.198020	  1.602255	  3.028775	
 -4.540918	 -0.929323	  0.533668	 -1.198057	  1.602171	  3.037162	
 -4.549003	 -0.929347	  0.533716	 -1.198008	  1.602315	  3.045706	
 -4.556272	 -0.929347	  0.533679	 -1.198033	  1.602267	  3.053793	
 -4.565137	 -0.929335	  0.533704	 -1.198068	  1.602291	  3.062061	
 -4.573546	 -0.929311	  0.533644	 -1.198008	  1.602291	  3.070520	
 -4.581799	 -0.929335	  0.533691	 -1.197985	  1.602267	  3.078979	
 -4.590351	 -0.929311	  0.533691	 -1.198008	  1.602291	  3.087582	
 -4.598952	 -0.929347	  0.533704	 -1.197996	  1.602291	  3.096137	
 -4.607349	 -0.929299	  0.533679	 -1.198033	  1.602279	  3.104883	
 -4.615913	 -0.929335	  0.533691	 -1.197996	  1.602231	  3.113497	
 -4.624669	 -0.929323	  0.533691	 -1.197961	  1.602279	  3.122172	
 -4.633521	 -0.929347	  0.533656	 -1.197985	  1.602207	  3.130727	
 -4.642037	 -0.929311	  0.533691	 -1.197985	  1.602327	  3.139737	
 -4.650781	 -0.929347	  0.533704	 -1.197985	  1.602267	  3.148759	
 -4.659777	 -0.929347	  0.533704	 -1.197973	  1.602267	  3.157673	
 -4.668545	 -0.929323	  0.533644	 -1.198020	  1.602279	  3.166730	
 -4.677349	 -0.929299	  0.533716	 -1.197985	  1.602267	  3.175584	
 -4.686404	 -0.929311	  0.533704	 -1.197973	  1.602279	  3.184474	
 -4.695496	 -0.929299	  0.533679	 -1.197961	  1.602255	  3.193364	
 -4.704383	 -0.929335	  0.533679	 -1.198008	  1.602315	  3.202457	
 -4.713462	 -0.929347	  0.533704	 -1.197973	  1.602279	  3.211718	
 -4.722745	 -0.929359	  0.533704	 -1.197961	  1.602291	  3.221015	
 -4.731824	 -0.929323	  0.533644	 -1.197961	  1.602279	  3.230360	
 -4.740915	 -0.929347	  0.533716	 -1.197985	  1.602243	  3.239417	
 -4.750222	 -0.929299	  0.533704	 -1.197949	  1.602279	  3.248714	
 -4.759696	 -0.929347	  0.533691	 -1.197961	  1.602231	  3.258167	
 -4.768871	 -0.929311	  0.533691	 -1.197961	  1.602315	  3.267751	
 -4.778357	 -0.929335	  0.533716	 -1.197961	  1.602279	  3.277167	
 -4.788011	 -0.929311	  0.533668	 -1.197936	  1.602255	  3.286811	
